;FLAVOR:Marlin
;TIME:4508
;Filament used: 6.15969m
;Layer height: 0.2
;Generated with Cura_SteamEngine 3.3.1
M104 S220
M109 S220
M82 ;absolute extrusion mode
G21 ;metric values
G90 ;absolute positioning
M82 ;set extruder to absolute mode
M107 ;start with the fan off
G28 X0 Y0 ;move X/Y to min endstops
G28 Z0 ;move Z to min endstops
G1 Z15.0 F9000 ;move the platform down 15mm
G92 E0 ;zero the extruded length
G1 F200 E3 ;extrude 3mm of feed stock
G92 E0 ;zero the extruded length again
G1 F9000
;Put printing message on LCD screen
M117 Printing...
G92 E0
G1 F1500 E-6.5
;LAYER_COUNT:157
;LAYER:-6
M107
G0 F7200 X74.376 Y79.564 Z0.36
G1 F1500 E0
G1 F1350 X75.049 Y78.956 E0.1086
G1 X75.196 Y78.833 E0.13155
G1 X75.869 Y78.311 E0.23353
G1 X76.041 Y78.186 E0.25899
G1 X76.777 Y77.696 E0.36486
G1 X77.341 Y77.371 E0.4428
G1 X77.92 Y76.99 E0.52579
G1 X78.179 Y76.794 E0.56468
G1 X78.772 Y76.368 E0.65211
G1 X79.726 Y75.739 E0.78893
G1 X80.296 Y75.389 E0.86902
G1 X80.998 Y74.985 E0.966
G1 X82.035 Y74.435 E1.10655
G1 X82.506 Y74.21 E1.16905
G1 X83.207 Y73.889 E1.26137
G1 X83.863 Y73.609 E1.34677
G1 X84.197 Y73.476 E1.38981
G1 X85.144 Y73.122 E1.51087
G1 X86.001 Y72.832 E1.6192
G1 X86.736 Y72.609 E1.71117
G1 X87.511 Y72.395 E1.80743
G1 X88.444 Y72.171 E1.92232
G1 X89.288 Y71.989 E2.0257
G1 X89.777 Y71.898 E2.08526
G1 X90.571 Y71.766 E2.18164
G1 X91.527 Y71.635 E2.29717
G1 X92.283 Y71.551 E2.38825
G1 X92.967 Y71.489 E2.47049
G1 X93.418 Y71.456 E2.52463
G1 X93.792 Y71.442 E2.56945
G1 X94.459 Y71.375 E2.64971
G1 X95.125 Y71.222 E2.73153
G1 X95.766 Y70.985 E2.81336
G1 X96.372 Y70.67 E2.89514
G1 X96.956 Y70.262 E2.98044
G1 X97.121 Y70.13 E3.00574
G1 X97.838 Y69.593 E3.113
G1 X98.742 Y69.008 E3.24193
G1 X98.873 Y68.931 E3.26012
G1 X99.799 Y68.436 E3.38585
G1 X100.776 Y68 E3.51395
G1 X101.478 Y67.737 E3.60371
G1 X102.542 Y67.408 E3.73706
G1 X102.697 Y67.366 E3.75629
G1 X103.555 Y67.171 E3.86164
G1 X103.75 Y67.134 E3.88541
G1 X104.635 Y67 E3.99258
G1 X104.779 Y66.983 E4.00995
G1 X105.682 Y66.913 E4.11839
G1 X105.866 Y66.906 E4.14044
G1 X106.755 Y66.901 E4.24689
G1 X107.813 Y66.968 E4.37382
G1 X108.868 Y67.111 E4.5013
G1 X109.035 Y67.141 E4.52162
G1 X110.072 Y67.372 E4.64883
G1 X111.107 Y67.686 E4.77833
G1 X111.939 Y67.999 E4.88477
G1 X112.729 Y68.351 E4.98832
G1 X117.017 Y70.442 E5.55955
G1 X117.928 Y70.927 E5.68312
G1 X118.062 Y71.005 E5.70169
G1 X118.961 Y71.58 E5.82946
G1 X119.695 Y72.123 E5.93879
G1 X119.827 Y72.228 E5.95898
G1 X120.471 Y72.781 E6.06062
G1 X120.625 Y72.923 E6.0857
G1 X121.368 Y73.668 E6.21169
G1 X121.965 Y74.355 E6.32066
G1 X122.068 Y74.483 E6.34034
G1 X122.688 Y75.321 E6.46515
G1 X123.265 Y76.231 E6.59417
G1 X123.7 Y77.035 E6.70363
G1 X123.768 Y77.172 E6.72194
G1 X124.201 Y78.141 E6.84902
G1 X124.455 Y78.819 E6.93571
G1 X124.525 Y79.03 E6.96233
G1 X124.794 Y79.909 E7.0724
G1 X124.835 Y80.064 E7.09159
G1 X125.029 Y80.917 E7.19634
G1 X125.067 Y81.117 E7.22071
G1 X125.201 Y81.998 E7.32741
G1 X125.218 Y82.146 E7.34525
G1 X125.288 Y83.043 E7.45298
G1 X125.295 Y83.221 E7.47431
G1 X125.3 Y84.171 E7.58806
G1 X125.346 Y84.839 E7.66824
G1 X125.477 Y85.509 E7.74998
G1 X125.693 Y86.157 E7.83176
G1 X125.987 Y86.771 E7.91328
G1 X126.153 Y87.035 E7.95062
G1 X126.148 Y87.045 E7.95195
G1 X126.773 Y87.959 E8.08453
G1 X127.005 Y88.333 E8.13723
G1 X127.333 Y88.825 E8.20803
G1 X127.713 Y89.458 E8.29643
G1 X128.099 Y90.124 E8.3886
G1 X128.511 Y90.892 E8.49296
G1 X128.956 Y91.781 E8.612
G1 X129.353 Y92.643 E8.72563
G1 X129.702 Y93.472 E8.83333
G1 X129.954 Y94.138 E8.91859
G1 X130.038 Y94.34 E8.94478
G1 X130.168 Y94.7 E8.99061
G1 X130.289 Y95.089 E9.03939
G1 X130.513 Y95.739 E9.12171
G1 X130.707 Y96.395 E9.20362
G1 X130.816 Y96.843 E9.25883
G1 X131.035 Y97.646 E9.35849
G1 X131.184 Y98.32 E9.44114
G1 X131.309 Y98.957 E9.51887
G1 X131.414 Y99.603 E9.59723
G1 X131.523 Y100.346 E9.68715
G1 X131.65 Y101.571 E9.83461
G1 X131.694 Y102.225 E9.9131
G1 X131.714 Y102.773 E9.97876
G1 X131.75 Y103.076 E10.01529
G1 X131.731 Y103.076 E10.01757
G1 X131.844 Y103.801 E10.10542
G1 X131.957 Y104.7 E10.21391
G1 X131.971 Y104.866 E10.23386
G1 X132.018 Y105.747 E10.3395
G1 X132.017 Y106.561 E10.43696
G1 X131.93 Y107.754 E10.58019
G1 X131.776 Y108.797 E10.70643
G1 X131.573 Y109.73 E10.82076
G1 X131.037 Y111.837 E11.08108
G1 X130.732 Y112.863 E11.20924
G1 X130.349 Y113.871 E11.33835
G1 X129.971 Y114.694 E11.44679
G1 X129.893 Y114.848 E11.46746
G1 X129.388 Y115.755 E11.59176
G1 X128.794 Y116.66 E11.72138
G1 X128.485 Y117.081 E11.78391
G1 X127.175 Y118.798 E12.0425
G1 X126.556 Y119.553 E12.1594
G1 X126.45 Y119.672 E12.17848
G1 X125.723 Y120.43 E12.30424
G1 X125.033 Y121.056 E12.41579
G1 X124.913 Y121.157 E12.43457
G1 X124.208 Y121.708 E12.54171
G1 X124.07 Y121.808 E12.56212
G1 X123.194 Y122.389 E12.68798
G1 X122.092 Y123.018 E12.83991
G1 X122.088 Y123.013 E12.84068
G1 X121.96 Y123.093 E12.85875
G1 X121.966 Y123.102 E12.86004
G1 X121.131 Y123.7 E12.98302
G1 X120.782 Y123.94 E13.03374
G1 X120.302 Y124.247 E13.10196
G1 X119.657 Y124.64 E13.1924
G1 X118.971 Y125.019 E13.28624
G1 X118.745 Y125.153 E13.3177
G1 X117.937 Y125.576 E13.4269
G1 X117.443 Y125.813 E13.4925
G1 X116.785 Y126.113 E13.57909
G1 X116.111 Y126.4 E13.66681
G1 X115.648 Y126.586 E13.72655
G1 X114.791 Y126.902 E13.83592
G1 X114.035 Y127.157 E13.93145
G1 X113.182 Y127.414 E14.03812
G1 X112.355 Y127.637 E14.14068
G1 X111.514 Y127.84 E14.24427
G1 X110.841 Y127.985 E14.3267
G1 X110.125 Y128.121 E14.41397
G1 X109.434 Y128.232 E14.49776
G1 X109.051 Y128.279 E14.54397
G1 X108.475 Y128.366 E14.61372
G1 X107.669 Y128.454 E14.7108
G1 X107.39 Y128.471 E14.74427
G1 X106.956 Y128.517 E14.79652
G1 X106.537 Y128.547 E14.84682
G1 X106.213 Y128.558 E14.88564
G1 X105.545 Y128.623 E14.966
G1 X104.88 Y128.777 E15.04773
G1 X104.24 Y129.012 E15.12937
G1 X103.632 Y129.326 E15.2113
G1 X103.02 Y129.756 E15.30086
G1 X102.888 Y129.864 E15.32128
G1 X102.161 Y130.408 E15.43
G1 X101.292 Y130.971 E15.55398
G1 X101.129 Y131.068 E15.57669
G1 X100.346 Y131.492 E15.68331
G1 X100.191 Y131.568 E15.70398
G1 X99.389 Y131.93 E15.80934
G1 X99.215 Y132.002 E15.83189
G1 X98.574 Y132.244 E15.91392
G1 X98.34 Y132.323 E15.9435
G1 X97.449 Y132.594 E16.05501
G1 X97.272 Y132.641 E16.07693
G1 X96.383 Y132.841 E16.18604
G1 X95.34 Y133.002 E16.31241
G1 X95.196 Y133.019 E16.32977
G1 X94.272 Y133.089 E16.44072
G1 X94.122 Y133.095 E16.4587
G1 X93.059 Y133.092 E16.58598
G1 X92.153 Y133.028 E16.69473
G1 X91.985 Y133.01 E16.71496
G1 X90.946 Y132.855 E16.84074
G1 X89.888 Y132.616 E16.97061
G1 X89.055 Y132.367 E17.07472
G1 X88.856 Y132.3 E17.09986
G1 X87.903 Y131.935 E17.22205
G1 X87.22 Y131.624 E17.31191
G1 X82.933 Y129.532 E17.88308
G1 X82.084 Y129.078 E17.99835
G1 X81.915 Y128.98 E18.02175
G1 X81.176 Y128.513 E18.12642
G1 X80.325 Y127.891 E18.25263
G1 X80.17 Y127.769 E18.27625
G1 X79.506 Y127.198 E18.38111
G1 X79.371 Y127.073 E18.40314
G1 X78.731 Y126.438 E18.51109
G1 X78.628 Y126.328 E18.52913
G1 X77.934 Y125.519 E18.65676
G1 X77.305 Y124.67 E18.78327
G1 X76.812 Y123.899 E18.89285
G1 X76.295 Y122.954 E19.02183
G1 X76.231 Y122.826 E19.03896
G1 X75.803 Y121.868 E19.1646
G1 X75.516 Y121.1 E19.26277
G1 X75.207 Y120.091 E19.38912
G1 X75.161 Y119.916 E19.41078
G1 X74.968 Y119.069 E19.5148
G1 X74.935 Y118.894 E19.53612
G1 X74.797 Y117.988 E19.64586
G1 X74.782 Y117.854 E19.662
G1 X74.711 Y116.941 E19.77165
G1 X74.705 Y116.766 E19.79262
G1 X74.7 Y115.8 E19.90828
G1 X74.654 Y115.133 E19.98834
G1 X74.523 Y114.463 E20.07008
G1 X74.307 Y113.815 E20.15187
G1 X74.01 Y113.196 E20.23407
G1 X73.551 Y112.509 E20.333
G1 X73.505 Y112.451 E20.34187
G1 X73.11 Y111.861 E20.42688
G1 X72.866 Y111.463 E20.48278
G1 X72.595 Y111.057 E20.54123
G1 X72.154 Y110.319 E20.64417
G1 X71.933 Y109.915 E20.6993
G1 X71.775 Y109.649 E20.73635
G1 X71.66 Y109.436 E20.76533
G1 X71.464 Y109.043 E20.81792
G1 X71.371 Y108.876 E20.8408
G1 X71.07 Y108.269 E20.92193
G1 X70.648 Y107.36 E21.04193
G1 X70.301 Y106.541 E21.14843
G1 X69.952 Y105.632 E21.26502
G1 X69.627 Y104.715 E21.38151
G1 X69.453 Y104.158 E21.45138
G1 X69.183 Y103.223 E21.56791
G1 X68.974 Y102.395 E21.67016
G1 X68.799 Y101.595 E21.76821
G1 X68.586 Y100.384 E21.91544
G1 X68.434 Y99.321 E22.04401
G1 X68.357 Y98.533 E22.13882
G1 X68.302 Y97.707 E22.23794
G1 X68.267 Y96.67 E22.36217
G1 X68.281 Y96.67 E22.36385
G1 X68.262 Y96.516 E22.38243
G1 X68.257 Y96.367 E22.40028
G1 X68.244 Y96.367 E22.40184
G1 X68.09 Y95.089 E22.55597
G1 X68.045 Y94.165 E22.66674
G1 X68.042 Y94.001 E22.68638
G1 X68.064 Y93.094 E22.79501
G1 X68.075 Y92.914 E22.8166
G1 X68.158 Y92.061 E22.91922
G1 X68.186 Y91.849 E22.94482
G1 X68.362 Y90.841 E23.06734
G1 X68.481 Y90.331 E23.13005
G1 X68.624 Y89.784 E23.19775
G1 X68.696 Y89.488 E23.23422
G1 X69.019 Y88.408 E23.3692
G1 X69.322 Y87.586 E23.47409
G1 X69.8 Y86.407 E23.62642
G1 X70.108 Y85.707 E23.71799
G1 X70.703 Y84.561 E23.8726
G1 X71.31 Y83.509 E24.01803
G1 X71.93 Y82.519 E24.1579
G1 X72.469 Y81.775 E24.2679
G1 X72.936 Y81.168 E24.3596
G1 X73.528 Y80.452 E24.47084
G1 X73.656 Y80.309 E24.49382
G1 X74.263 Y79.673 E24.59909
G1 X74.376 Y79.564 E24.61789
G0 F7200 X75.2 Y78.829
G1 F1350 X75.2 Y120.064 E29.55523
G0 F7200 X76.8 Y123.877
G1 F1350 X76.8 Y77.682 E35.08645
G0 F7200 X78.4 Y76.635
G1 F1350 X78.4 Y126.062 E41.00467
G0 F7200 X80 Y127.622
G1 F1350 X80 Y75.57 E47.23719
G0 F7200 X81.6 Y74.665
G1 F1350 X81.6 Y128.78 E53.71673
G0 F7200 X83.2 Y129.662
G1 F1350 X83.2 Y73.892 E60.39444
G0 F7200 X84.8 Y73.25
G1 F1350 X84.8 Y130.443 E67.24253
G0 F7200 X86.4 Y131.223
G1 F1350 X86.4 Y72.71 E74.24867
G0 F7200 X88 Y72.277
G1 F1350 X88 Y131.972 E81.39634
G0 F7200 X89.6 Y132.529
G1 F1350 X89.6 Y71.93 E88.65225
G0 F7200 X91.2 Y71.679
G1 F1350 X91.2 Y132.892 E95.98168
G0 F7200 X92.8 Y133.073
G1 F1350 X92.8 Y71.504 E103.35373
G0 F7200 X94.4 Y71.38
G1 F1350 X94.4 Y133.08 E110.74147
G0 F7200 X96 Y132.901
G1 F1350 X96 Y70.863 E118.16969
G0 F7200 X97.6 Y69.771
G1 F1350 X97.6 Y132.549 E125.6865
G0 F7200 X99.2 Y132.008
G1 F1350 X99.2 Y68.756 E133.26007
G0 F7200 X100.8 Y67.991
G1 F1350 X100.8 Y131.247 E140.83413
G0 F7200 X102.4 Y130.23
G1 F1350 X102.4 Y67.451 E148.35106
G0 F7200 X104 Y67.096
G1 F1350 X104 Y129.136 E155.77951
G0 F7200 X105.6 Y128.618
G1 F1350 X105.6 Y66.919 E163.16714
G0 F7200 X107.2 Y66.93
G1 F1350 X107.2 Y128.492 E170.53835
G0 F7200 X108.8 Y128.317
G1 F1350 X108.8 Y67.102 E177.86802
G0 F7200 X110.4 Y67.472
G1 F1350 X110.4 Y128.069 E185.12369
G0 F7200 X112 Y127.723
G1 F1350 X112 Y68.027 E192.27148
G0 F7200 X113.6 Y68.776
G1 F1350 X113.6 Y127.289 E199.27762
G0 F7200 X115.2 Y126.752
G1 F1350 X115.2 Y69.556 E206.12607
G0 F7200 X116.8 Y70.337
G1 F1350 X116.8 Y126.107 E212.80378
G0 F7200 X118.4 Y125.334
G1 F1350 X118.4 Y71.222 E219.28296
G0 F7200 X120 Y72.377
G1 F1350 X120 Y124.432 E225.51584
G0 F7200 X121.6 Y123.365
G1 F1350 X121.6 Y73.935 E231.43441
G0 F7200 X123.2 Y76.129
G1 F1350 X123.2 Y122.386 E236.97307
G0 F7200 X124.8 Y121.246
G1 F1350 X124.8 Y79.932 E241.91986
G0 F7200 X125.117 Y81.477
G0 X126.4 Y87.414
G1 F1350 X126.4 Y119.725 E245.78866
G0 F7200 X128 Y117.717
G1 F1350 X128 Y89.954 E249.11291
G0 F7200 X129.6 Y93.23
G1 F1350 X129.6 Y115.375 E251.76447
G0 F7200 X131.2 Y111.197
G1 F1350 X131.2 Y98.402 E253.2965
G0 F7200 X73.6 Y112.582
G1 F1350 X73.6 Y80.371 E257.15333
G0 F7200 X72 Y82.422
G1 F1350 X72 Y110.037 E260.45986
G0 F7200 X70.4 Y106.774
G1 F1350 X70.4 Y85.144 E263.04976
G0 F7200 X68.8 Y89.14
G1 F1350 X68.8 Y101.599 E264.54155
G0 F7200 X75.083 Y116.641
G0 X76.308 Y122.977
;TIME_ELAPSED:109.108541
;LAYER:-5
G0 X76.308 Y122.977 Z0.66
;TYPE:SUPPORT
G1 F1350 X82.78 Y129.449 E265.45482
G1 X82.084 Y129.077 E265.53357
G1 X81.915 Y128.979 E265.55306
G1 X81.175 Y128.512 E265.64037
G1 X80.324 Y127.89 E265.74555
G1 X80.17 Y127.768 E265.76515
G1 X79.505 Y127.197 E265.85261
G1 X79.37 Y127.072 E265.87097
G1 X78.731 Y126.437 E265.96086
G1 X78.628 Y126.326 E265.97596
G1 X77.933 Y125.517 E266.08238
G1 X77.304 Y124.669 E266.18773
G1 X76.812 Y123.898 E266.27899
G0 F7200 X82.78 Y129.449
G1 F1350 X82.933 Y129.531 E266.29631
G1 X85.557 Y130.811 E266.58763
G1 X75.371 Y120.626 E268.02491
G1 X75.207 Y120.09 E268.08084
G1 X75.161 Y119.915 E268.0989
G1 X74.967 Y119.068 E268.1856
G1 X74.934 Y118.892 E268.20347
G1 X74.913 Y118.754 E268.2174
G1 X88.211 Y132.052 E270.09389
G1 X88.855 Y132.298 E270.16267
G1 X89.054 Y132.366 E270.18366
G1 X89.888 Y132.615 E270.2705
G1 X90.277 Y132.703 E270.3103
G1 X74.727 Y117.153 E272.50457
G1 X74.71 Y116.94 E272.52589
G1 X74.705 Y116.765 E272.54336
G1 X74.699 Y115.799 E272.63975
G1 X74.692 Y115.704 E272.64926
G1 X91.998 Y133.011 E275.09139
G1 X92.153 Y133.027 E275.10694
G1 X93.058 Y133.09 E275.19746
G1 X93.494 Y133.092 E275.24096
G1 X74.352 Y113.95 E277.94211
G1 X74.307 Y113.814 E277.9564
G1 X74.01 Y113.195 E278.02491
G1 X73.551 Y112.508 E278.10735
G1 X73.505 Y112.449 E278.11481
G1 X73.109 Y111.86 E278.18563
G1 X72.865 Y111.462 E278.23221
G1 X72.595 Y111.056 E278.28086
G1 X72.182 Y110.366 E278.3611
G1 X94.859 Y133.043 E281.56107
G1 X95.196 Y133.018 E281.59479
G1 X95.339 Y133.001 E281.60916
G1 X96.112 Y132.881 E281.68721
G1 X70.697 Y107.467 E285.27347
G1 X70.647 Y107.359 E285.28535
G1 X70.301 Y106.54 E285.37406
G1 X69.951 Y105.631 E285.47125
G1 X69.774 Y105.129 E285.52437
G1 X97.282 Y132.637 E289.40604
G1 X97.448 Y132.593 E289.42318
G1 X98.34 Y132.322 E289.5162
G1 X98.37 Y132.311 E289.51939
G1 X69.15 Y103.091 E293.64264
G1 X68.974 Y102.394 E293.71437
G1 X68.798 Y101.594 E293.79611
G1 X68.74 Y101.267 E293.82925
G1 X99.398 Y131.924 E298.15535
G1 X100.191 Y131.567 E298.24212
G1 X100.346 Y131.491 E298.25935
G1 X100.366 Y131.479 E298.26168
G1 X68.471 Y99.583 E302.76248
G1 X68.433 Y99.32 E302.78899
G1 X68.357 Y98.532 E302.86798
G1 X68.322 Y98.021 E302.91909
G1 X101.278 Y130.977 E307.56954
G1 X101.291 Y130.97 E307.57101
G1 X102.138 Y130.422 E307.67167
G1 X68.265 Y96.549 E312.45152
G1 X68.261 Y96.515 E312.45493
G1 X68.257 Y96.365 E312.46991
G1 X68.244 Y96.365 E312.4712
G1 X68.089 Y95.088 E312.59956
G1 X68.082 Y94.952 E312.61315
G1 X102.945 Y129.815 E317.53269
G1 X103.019 Y129.755 E317.5422
G1 X103.632 Y129.325 E317.61691
G1 X103.788 Y129.244 E317.63445
G1 X68.053 Y93.509 E322.67704
G1 X68.063 Y93.092 E322.71866
G1 X68.075 Y92.913 E322.73657
G1 X68.145 Y92.186 E322.80944
G1 X104.773 Y128.815 E327.97812
G1 X104.88 Y128.776 E327.98948
G1 X105.544 Y128.622 E328.05749
G1 X105.955 Y128.582 E328.0987
G1 X68.339 Y90.966 E333.40672
G1 X68.361 Y90.84 E333.41948
G1 X68.481 Y90.33 E333.47176
G1 X68.612 Y89.825 E333.52382
G1 X107.269 Y128.482 E338.97874
G1 X107.389 Y128.469 E338.99078
G1 X107.669 Y128.453 E339.01877
G1 X108.474 Y128.365 E339.09957
G1 X108.553 Y128.352 E339.10756
G1 X68.923 Y88.722 E344.69978
G1 X69.018 Y88.407 E344.73261
G1 X69.288 Y87.673 E344.81064
G1 X109.789 Y128.174 E350.52577
G1 X110.124 Y128.12 E350.55963
G1 X110.841 Y127.984 E350.63245
G1 X110.982 Y127.953 E350.64685
G1 X69.694 Y86.665 E356.47304
G1 X69.8 Y86.406 E356.50096
G1 X70.107 Y85.706 E356.57723
G1 X70.121 Y85.678 E356.58035
G1 X112.132 Y127.689 E362.50856
G1 X112.354 Y127.636 E362.53133
G1 X113.182 Y127.413 E362.61689
G1 X113.25 Y127.392 E362.624
G1 X70.605 Y84.747 E368.64167
G1 X70.702 Y84.56 E368.66269
G1 X71.115 Y83.843 E368.74525
G1 X114.328 Y127.056 E374.84307
G1 X114.791 Y126.9 E374.89182
G1 X115.372 Y126.686 E374.9536
G1 X71.65 Y82.964 E381.12325
G1 X71.929 Y82.517 E381.17582
G1 X72.218 Y82.118 E381.22498
G1 X116.383 Y126.282 E387.45707
G1 X116.785 Y126.111 E387.50066
G1 X117.362 Y125.848 E387.56393
G1 X72.824 Y81.31 E393.84872
G1 X72.935 Y81.166 E393.86687
G1 X73.46 Y80.531 E393.94908
G1 X118.308 Y125.379 E400.27761
G1 X118.744 Y125.152 E400.32666
G1 X118.97 Y125.017 E400.35293
G1 X119.221 Y124.878 E400.38156
G1 X74.141 Y79.798 E406.74283
G1 X74.263 Y79.672 E406.76033
G1 X74.376 Y79.563 E406.776
G1 X74.872 Y79.115 E406.84269
G1 X120.116 Y124.358 E413.22704
G1 X120.302 Y124.246 E413.2487
G1 X120.781 Y123.939 E413.30547
G1 X120.976 Y123.805 E413.32908
G1 X75.651 Y78.479 E419.72499
G1 X75.869 Y78.309 E419.75258
G1 X76.04 Y78.184 E419.77371
G1 X76.479 Y77.893 E419.82627
G1 X121.803 Y123.217 E426.22197
G1 X121.966 Y123.101 E426.24194
