;FLAVOR:Marlin
;TIME:4313
;Filament used: 5.49999m
;Layer height: 0.2
;Generated with Cura_SteamEngine 3.3.1
M104 S220
M109 S220
M82 ;absolute extrusion mode
G21 ;metric values
G90 ;absolute positioning
M82 ;set extruder to absolute mode
M107 ;start with the fan off
G28 X0 Y0 ;move X/Y to min endstops
G28 Z0 ;move Z to min endstops
G1 Z15.0 F9000 ;move the platform down 15mm
G92 E0 ;zero the extruded length
G1 F200 E3 ;extrude 3mm of feed stock
G92 E0 ;zero the extruded length again
G1 F9000
;Put printing message on LCD screen
M117 Printing...
G92 E0
G1 F1500 E-6.5
;LAYER_COUNT:224
;LAYER:-6
M107
G0 F7200 X83.331 Y79.172 Z0.36
G1 F1500 E0
G1 F1350 X84.185 Y78.276 E0.14821
G1 X84.606 Y77.853 E0.21967
G1 X85.295 Y77.187 E0.33441
G1 X85.78 Y76.739 E0.41346
G1 X86.322 Y76.26 E0.50007
G1 X87.052 Y75.66 E0.61322
G1 X87.184 Y75.559 E0.63312
G1 X87.929 Y75.032 E0.74238
G1 X88.463 Y74.703 E0.81748
G1 X88.843 Y74.452 E0.87201
G1 X89.945 Y73.649 E1.03528
G1 X90.773 Y73.091 E1.15483
G1 X91.4 Y72.701 E1.24324
G1 X91.914 Y72.34 E1.31845
G1 X92.148 Y72.16 E1.3538
G1 X92.897 Y71.647 E1.4625
G1 X93.053 Y71.549 E1.48456
G1 X94.017 Y70.994 E1.61775
G1 X94.616 Y70.681 E1.69867
G1 X95.313 Y70.346 E1.79127
G1 X96.249 Y69.91 E1.9149
G1 X96.787 Y69.675 E1.9852
G1 X97.554 Y69.357 E2.08462
G1 X97.991 Y69.186 E2.1408
G1 X98.81 Y68.881 E2.24545
G1 X99.311 Y68.703 E2.30911
G1 X100.377 Y68.35 E2.44357
G1 X101.096 Y68.13 E2.5336
G1 X102.052 Y67.867 E2.65232
G1 X102.854 Y67.67 E2.7512
G1 X103.632 Y67.495 E2.84668
G1 X104.194 Y67.38 E2.91537
G1 X105.036 Y67.224 E3.0179
G1 X105.833 Y67.098 E3.11452
G1 X106.796 Y66.973 E3.23079
G1 X107.613 Y66.893 E3.32908
G1 X108.319 Y66.834 E3.41391
G1 X108.954 Y66.795 E3.49009
G1 X109.739 Y66.764 E3.58415
G1 X110.558 Y66.753 E3.68223
G1 X111.568 Y66.769 E3.80318
G1 X112.62 Y66.818 E3.92928
G1 X113.385 Y66.88 E4.02117
G1 X114.025 Y66.946 E4.09821
G1 X114.723 Y67.035 E4.18247
G1 X115.369 Y67.132 E4.26068
G1 X116.205 Y67.277 E4.36228
G1 X117.075 Y67.456 E4.46863
G1 X117.744 Y67.616 E4.55099
G1 X118.524 Y67.824 E4.64765
G1 X119.24 Y68.037 E4.73709
G1 X119.943 Y68.266 E4.82562
G1 X120.635 Y68.509 E4.91344
G1 X121.529 Y68.857 E5.02831
G1 X122.177 Y69.134 E5.11269
G1 X123.187 Y69.61 E5.24638
G1 X123.818 Y69.937 E5.33148
G1 X124.479 Y70.3 E5.42177
G1 X125.07 Y70.646 E5.50377
G1 X126.164 Y71.349 E5.65948
G1 X126.784 Y71.786 E5.7503
G1 X127.688 Y72.475 E5.8864
G1 X128.482 Y73.171 E6.01282
G1 X128.628 Y73.309 E6.03688
G1 X129.26 Y73.954 E6.145
G1 X129.609 Y74.358 E6.20893
G1 X130.514 Y75.324 E6.36742
G1 X131.481 Y76.482 E6.54806
G1 X132.108 Y77.291 E6.67062
G1 X132.642 Y78.082 E6.78489
G1 X133.254 Y79.056 E6.92263
G1 X133.957 Y80.301 E7.09382
G1 X134.219 Y80.838 E7.16536
G1 X134.368 Y81.162 E7.20806
G1 X134.351 Y81.168 E7.21022
G1 X134.695 Y81.81 E7.29743
G1 X135.094 Y82.625 E7.40609
G1 X135.163 Y82.78 E7.4264
G1 X135.551 Y83.763 E7.55294
G1 X135.729 Y84.294 E7.62
G1 X135.877 Y84.787 E7.68163
G1 X136.191 Y85.995 E7.83108
G1 X136.344 Y86.713 E7.91898
G1 X136.485 Y87.48 E8.01235
G1 X136.61 Y88.301 E8.11179
G1 X136.718 Y89.225 E8.22318
G1 X136.771 Y89.835 E8.2965
G1 X136.824 Y90.885 E8.42238
G1 X136.836 Y91.705 E8.52057
G1 X136.832 Y92.406 E8.60451
G1 X136.796 Y93.312 E8.71308
G1 X136.74 Y94.096 E8.80719
G1 X136.649 Y94.995 E8.91538
G1 X136.555 Y95.694 E8.99983
G1 X136.394 Y96.677 E9.1191
G1 X136.182 Y97.726 E9.24724
G1 X136.015 Y98.447 E9.33586
G1 X135.847 Y99.101 E9.41671
G1 X135.629 Y99.861 E9.51138
G1 X135.354 Y100.729 E9.6204
G1 X135.128 Y101.386 E9.70359
G1 X134.754 Y102.376 E9.83031
G1 X134.438 Y103.141 E9.92941
G1 X134.092 Y103.929 E10.03246
G1 X133.67 Y104.82 E10.15051
G1 X133.324 Y105.505 E10.2424
G1 X132.886 Y106.315 E10.35265
G1 X132.481 Y107.017 E10.44969
G1 X131.943 Y107.89 E10.57248
G1 X131.572 Y108.463 E10.65421
G1 X130.965 Y109.354 E10.7833
G1 X130.561 Y109.918 E10.86637
G1 X130.018 Y110.643 E10.97483
G1 X129.345 Y111.493 E11.10464
G1 X129.021 Y111.882 E11.16526
G1 X128.367 Y112.638 E11.28495
G1 X127.887 Y113.167 E11.37048
G1 X127.09 Y114 E11.50852
G1 X126.69 Y114.403 E11.57651
G1 X125.939 Y115.131 E11.70175
G1 X125.393 Y115.634 E11.79064
G1 X124.844 Y116.112 E11.8778
G1 X124.079 Y116.732 E11.9957
G1 X123.953 Y116.827 E12.0146
G1 X123.082 Y117.427 E12.14124
G1 X122.845 Y117.568 E12.17426
G1 X122.434 Y117.838 E12.23314
G1 X121.284 Y118.675 E12.40344
G1 X120.273 Y119.351 E12.54907
G1 X119.851 Y119.611 E12.60841
G1 X119.353 Y119.96 E12.68123
G1 X119.219 Y120.067 E12.70176
G1 X118.352 Y120.668 E12.82807
G1 X118.174 Y120.78 E12.85326
G1 X117.102 Y121.391 E13.001
G1 X116.49 Y121.705 E13.08336
G1 X115.812 Y122.032 E13.17349
G1 X114.413 Y122.666 E13.3574
G1 X113.833 Y122.908 E13.43265
G1 X113.358 Y123.097 E13.49386
G1 X112.591 Y123.387 E13.59204
G1 X112.029 Y123.586 E13.66343
G1 X111.146 Y123.877 E13.77475
G1 X110.837 Y123.967 E13.81329
G1 X110.307 Y124.143 E13.88015
G1 X109.553 Y124.357 E13.974
G1 X108.723 Y124.571 E14.07663
G1 X107.895 Y124.761 E14.17835
G1 X107.284 Y124.887 E14.25305
G1 X106.167 Y125.094 E14.38907
G1 X105.427 Y125.214 E14.47884
G1 X104.519 Y125.338 E14.58857
G1 X103.77 Y125.422 E14.67881
G1 X102.977 Y125.49 E14.77411
G1 X102.369 Y125.527 E14.84704
G1 X101.514 Y125.561 E14.9495
G1 X100.708 Y125.572 E15.04602
G1 X99.62 Y125.555 E15.17631
G1 X98.662 Y125.51 E15.29114
G1 X98.046 Y125.462 E15.36512
G1 X97.425 Y125.401 E15.43983
G1 X96.609 Y125.302 E15.53826
G1 X95.677 Y125.161 E15.65112
G1 X94.905 Y125.02 E15.74509
G1 X94.196 Y124.874 E15.83176
G1 X93.565 Y124.726 E15.90936
G1 X92.848 Y124.539 E15.99809
G1 X91.676 Y124.193 E16.14441
G1 X90.649 Y123.86 E16.27368
G1 X89.661 Y123.502 E16.3995
G1 X88.667 Y123.06 E16.52976
G1 X87.984 Y122.707 E16.62182
G1 X86.701 Y122 E16.79722
G1 X85.988 Y121.573 E16.89673
G1 X85.086 Y120.985 E17.02565
G1 X84.275 Y120.406 E17.14497
G1 X83.274 Y119.625 E17.29699
G1 X82.546 Y118.961 E17.41497
G1 X82.409 Y118.826 E17.438
G1 X81.799 Y118.179 E17.54447
G1 X81.396 Y117.72 E17.61761
G1 X81.391 Y117.724 E17.61837
G1 X80.472 Y116.715 E17.78179
G1 X79.606 Y115.667 E17.94457
G1 X78.949 Y114.789 E18.07587
G1 X78.578 Y114.229 E18.15631
G1 X77.92 Y113.175 E18.30508
G1 X77.458 Y112.378 E18.41539
G1 X76.984 Y111.427 E18.54262
G1 X76.807 Y111.039 E18.59368
G1 X76.534 Y110.506 E18.66538
G1 X76.142 Y109.705 E18.77216
G1 X76.066 Y109.531 E18.7949
G1 X75.734 Y108.705 E18.90149
G1 X75.505 Y108.03 E18.98684
G1 X75.396 Y107.682 E19.0305
G1 X75.049 Y106.358 E19.19439
G1 X74.878 Y105.558 E19.29234
G1 X74.683 Y104.443 E19.42787
G1 X74.61 Y103.949 E19.48766
G1 X74.499 Y102.991 E19.60314
G1 X74.446 Y102.34 E19.68134
G1 X74.405 Y101.476 E19.78491
G1 X74.389 Y100.355 E19.91915
G1 X74.399 Y99.762 E19.99017
G1 X74.416 Y99.508 E20.02065
G1 X74.44 Y98.924 E20.09063
G1 X74.499 Y98.127 E20.18632
G1 X74.596 Y97.222 E20.2953
G1 X74.709 Y96.421 E20.39216
G1 X74.848 Y95.603 E20.49151
G1 X75.006 Y94.803 E20.58915
G1 X75.216 Y93.877 E20.70284
G1 X75.436 Y93.038 E20.8067
G1 X75.616 Y92.407 E20.88527
G1 X75.776 Y91.892 E20.94984
G1 X75.963 Y91.328 E21.02098
G1 X76.199 Y90.661 E21.1057
G1 X76.512 Y89.849 E21.2099
G1 X76.79 Y89.175 E21.2972
G1 X77.142 Y88.386 E21.40064
G1 X77.658 Y87.315 E21.54299
G1 X77.97 Y86.708 E21.62471
G1 X78.432 Y85.857 E21.74065
G1 X78.841 Y85.151 E21.83835
G1 X79.381 Y84.281 E21.96095
G1 X79.759 Y83.704 E22.04355
G1 X80.34 Y82.858 E22.16643
G1 X80.749 Y82.29 E22.25024
G1 X81.312 Y81.546 E22.36195
G1 X81.88 Y80.831 E22.47129
G1 X82.23 Y80.412 E22.53666
G1 X82.894 Y79.649 E22.65777
G1 X83.331 Y79.172 E22.73523
G0 F7200 X83.2 Y79.314
G1 F1350 X83.2 Y119.557 E27.55378
G0 F7200 X84.8 Y120.78
G1 F1350 X84.8 Y77.665 E32.71622
G0 F7200 X86.4 Y76.195
G1 F1350 X86.4 Y121.819 E38.17908
G0 F7200 X88 Y122.715
G1 F1350 X88 Y74.988 E43.89374
G0 F7200 X89.6 Y73.9
G1 F1350 X89.6 Y123.474 E49.82956
G0 F7200 X91.2 Y124.038
G1 F1350 X91.2 Y72.825 E55.96163
G0 F7200 X92.8 Y71.713
G1 F1350 X92.8 Y124.524 E62.28503
G0 F7200 X94.4 Y124.916
G1 F1350 X94.4 Y70.793 E68.76553
G0 F7200 X96 Y70.025
G1 F1350 X96 Y125.209 E75.37306
G0 F7200 X97.6 Y125.418
G1 F1350 X97.6 Y69.339 E82.08777
G0 F7200 X99.2 Y68.742
G1 F1350 X99.2 Y125.535 E88.88796
G0 F7200 X100.8 Y125.571
G1 F1350 X100.8 Y68.22 E95.75497
G0 F7200 X102.4 Y67.781
G1 F1350 X102.4 Y125.526 E102.66915
G0 F7200 X104 Y125.397
G1 F1350 X104 Y67.419 E109.61123
G0 F7200 X105.6 Y67.134
G1 F1350 X105.6 Y125.186 E116.56218
G0 F7200 X107.2 Y124.903
G1 F1350 X107.2 Y66.933 E123.5033
G0 F7200 X108.8 Y66.804
G1 F1350 X108.8 Y124.552 E130.41784
G0 F7200 X110.4 Y124.113
G1 F1350 X110.4 Y66.755 E137.28569
G0 F7200 X112 Y66.79
G1 F1350 X112 Y123.596 E144.08744
G0 F7200 X113.6 Y123.001
G1 F1350 X113.6 Y66.903 E150.80442
G0 F7200 X115.2 Y67.107
G1 F1350 X115.2 Y122.31 E157.41423
G0 F7200 X116.8 Y121.546
G1 F1350 X116.8 Y67.4 E163.89748
G0 F7200 X118.4 Y67.791
G1 F1350 X118.4 Y120.635 E170.22484
G0 F7200 X120 Y119.52
G1 F1350 X120 Y68.287 E176.3593
G0 F7200 X121.6 Y68.888
G1 F1350 X121.6 Y118.446 E182.2932
G0 F7200 X123.2 Y117.346
G1 F1350 X123.2 Y69.617 E188.0081
G0 F7200 X124.8 Y70.488
G1 F1350 X124.8 Y116.148 E193.47527
G0 F7200 X126.4 Y114.685
G1 F1350 X126.4 Y71.516 E198.64417
G0 F7200 X128 Y72.749
G1 F1350 X128 Y113.043 E203.46883
G0 F7200 X129.6 Y111.171
G1 F1350 X129.6 Y74.348 E207.87789
G0 F7200 X131.2 Y76.146
G1 F1350 X131.2 Y109.01 E211.81291
G0 F7200 X132.8 Y106.465
G1 F1350 X132.8 Y78.334 E215.18122
G0 F7200 X134.4 Y81.26
G1 F1350 X134.4 Y103.228 E217.81159
G0 F7200 X136 Y98.506
G1 F1350 X136 Y85.261 E219.3975
G0 F7200 X81.6 Y81.183
G1 F1350 X81.6 Y117.952 E223.80009
G0 F7200 X80 Y116.143
G1 F1350 X80 Y83.353 E227.72625
G0 F7200 X78.4 Y85.915
G1 F1350 X78.4 Y113.943 E231.08222
G0 F7200 X76.8 Y111.025
G1 F1350 X76.8 Y89.152 E233.70122
G0 F7200 X75.2 Y93.947
G1 F1350 X75.2 Y106.934 E235.25624
G0 F7200 X78.086 Y113.441
;TIME_ELAPSED:97.976574
;LAYER:-5
G0 X78.086 Y113.441 Z0.66
;TYPE:SUPPORT
G1 F1350 X86.559 Y121.914 E236.45187
G1 X86.7 Y121.999 E236.4683
G1 X87.984 Y122.706 E236.61455
G1 X88.666 Y123.059 E236.69118
G1 X89.48 Y123.421 E236.78007
G1 X76.505 Y110.446 E238.61098
G1 X76.141 Y109.704 E238.69345
G1 X76.065 Y109.53 E238.71239
G1 X75.733 Y108.704 E238.80122
G1 X75.506 Y108.033 E238.8719
G1 X91.659 Y124.186 E241.15126
G1 X91.676 Y124.191 E241.15303
G1 X92.848 Y124.537 E241.27496
G1 X93.565 Y124.725 E241.34892
G1 X93.627 Y124.74 E241.35529
G1 X74.995 Y106.108 E243.98447
G1 X74.877 Y105.557 E244.04069
G1 X74.683 Y104.442 E244.15362
G1 X74.672 Y104.371 E244.16079
G1 X95.413 Y125.111 E247.0875
G1 X95.677 Y125.16 E247.11429
G1 X96.608 Y125.301 E247.20824
G1 X97.073 Y125.357 E247.25498
G1 X74.48 Y102.764 E250.44309
G1 X74.445 Y102.339 E250.48564
G1 X74.404 Y101.475 E250.57195
G1 X74.401 Y101.271 E250.59231
G1 X98.637 Y125.507 E254.01227
G1 X98.661 Y125.509 E254.01467
G1 X99.62 Y125.553 E254.11046
G1 X100.105 Y125.561 E254.15886
G1 X74.396 Y99.852 E257.78668
G1 X74.398 Y99.761 E257.79576
G1 X74.415 Y99.506 E257.82126
G1 X74.439 Y98.922 E257.87958
G1 X74.47 Y98.511 E257.92071
G1 X101.517 Y125.559 E261.7374
G1 X102.368 Y125.526 E261.82238
G1 X102.868 Y125.495 E261.87237
G1 X74.595 Y97.222 E265.86199
G1 X74.709 Y96.42 E265.94282
G1 X74.781 Y95.994 E265.98593
G1 X104.163 Y125.377 E270.13212
G1 X104.518 Y125.337 E270.16776
G1 X105.415 Y125.214 E270.2581
G1 X75.005 Y94.804 E274.54928
G1 X75.215 Y93.876 E274.64422
G1 X75.272 Y93.657 E274.6668
G1 X106.623 Y125.008 E279.09077
G1 X107.283 Y124.886 E279.15774
G1 X107.807 Y124.778 E279.21112
G1 X75.575 Y92.546 E283.7594
G1 X75.615 Y92.406 E283.77393
G1 X75.776 Y91.891 E283.82777
G1 X75.914 Y91.471 E283.87188
G1 X108.953 Y124.51 E288.53404
G1 X109.552 Y124.356 E288.59576
G1 X110.067 Y124.209 E288.64919
G1 X76.286 Y90.429 E293.41599
G1 X76.511 Y89.847 E293.47825
G1 X76.689 Y89.417 E293.52469
G1 X111.147 Y123.875 E298.38708
G1 X112.028 Y123.585 E298.47963
G1 X112.207 Y123.521 E298.4986
G1 X77.119 Y88.433 E303.44989
G1 X77.141 Y88.384 E303.45525
G1 X77.578 Y87.478 E303.55562
G1 X113.24 Y123.139 E308.58784
G1 X113.357 Y123.095 E308.60031
G1 X113.833 Y122.907 E308.65138
G1 X114.248 Y122.733 E308.69628
G1 X78.058 Y86.543 E313.80308
G1 X78.431 Y85.856 E313.88108
G1 X78.56 Y85.632 E313.90687
G1 X115.225 Y122.296 E319.08063
G1 X115.812 Y122.031 E319.14489
G1 X116.191 Y121.847 E319.18693
G1 X79.09 Y84.747 E324.42221
G1 X79.381 Y84.28 E324.47712
G1 X79.64 Y83.883 E324.52442
G1 X117.13 Y121.373 E329.81466
G1 X118.03 Y120.859 E329.91807
G1 X80.212 Y83.041 E335.2546
G1 X80.34 Y82.857 E335.27697
G1 X80.748 Y82.288 E335.34683
G1 X80.802 Y82.216 E335.35581
G1 X118.883 Y120.297 E340.72945
G1 X119.218 Y120.066 E340.77005
G1 X119.352 Y119.959 E340.78716
G1 X119.709 Y119.709 E340.83065
G1 X81.414 Y81.414 E346.23449
G1 X81.879 Y80.831 E346.3089
G1 X82.045 Y80.631 E346.33483
G1 X120.567 Y119.153 E351.7707
G1 X121.282 Y118.675 E351.85652
G1 X121.41 Y118.581 E351.87237
G1 X82.699 Y79.871 E357.33484
G1 X82.893 Y79.649 E357.36425
G1 X83.329 Y79.171 E357.42881
G1 X83.37 Y79.128 E357.43474
G1 X122.228 Y117.985 E362.91795
G1 X122.432 Y117.837 E362.9431
G1 X122.844 Y117.567 E362.99225
G1 X123.082 Y117.425 E363.0199
G1 X84.061 Y78.404 E368.52619
G1 X84.184 Y78.276 E368.5439
G1 X84.605 Y77.852 E368.60352
G1 X84.767 Y77.696 E368.62596
G1 X123.919 Y116.848 E374.15073
G1 X123.952 Y116.827 E374.15463
G1 X124.078 Y116.732 E374.17038
G1 X124.706 Y116.221 E374.25117
G1 X85.491 Y77.006 E379.78483
G1 X85.779 Y76.739 E379.82401
G1 X86.235 Y76.336 E379.88473
G1 X125.465 Y115.565 E385.42044
G1 X125.938 Y115.131 E385.48449
G1 X126.195 Y114.881 E385.52027
G1 X87.008 Y75.695 E391.04991
G1 X87.051 Y75.659 E391.0555
G1 X87.183 Y75.558 E391.07209
G1 X87.829 Y75.101 E391.15104
G1 X126.909 Y114.181 E396.66565
G1 X127.089 Y113.999 E396.6912
G1 X127.604 Y113.462 E396.76544
G1 X88.693 Y74.55 E402.25627
G1 X88.842 Y74.452 E402.27406
G1 X89.517 Y73.961 E402.35735
G1 X128.284 Y112.728 E407.82779
G1 X128.366 Y112.637 E407.84001
G1 X128.943 Y111.972 E407.92786
G1 X90.347 Y73.377 E413.37411
G1 X90.772 Y73.09 E413.42528
G1 X91.206 Y72.821 E413.47622
G1 X129.58 Y111.196 E418.89128
G1 X130.017 Y110.643 E418.96161
G1 X130.199 Y110.4 E418.9919
G1 X92.041 Y72.242 E424.37641
G1 X92.147 Y72.16 E424.38978
G1 X92.875 Y71.662 E424.47779
G1 X130.799 Y109.585 E429.82921
G1 X130.964 Y109.354 E429.85753
G1 X131.376 Y108.749 E429.93057
G1 X93.765 Y71.138 E435.23788
G1 X94.016 Y70.994 E435.26676
G1 X94.615 Y70.68 E435.33424
G1 X94.687 Y70.646 E435.34219
G1 X131.938 Y107.896 E440.59863
G0 F7200 X131.942 Y107.889
G1 F1350 X132.477 Y107.022 E440.70029
G1 X95.646 Y70.19 E445.89761
G1 X96.248 Y69.91 E445.96386
G1 X96.619 Y69.749 E446.00421
G1 X132.99 Y106.12 E451.13655
G1 X133.323 Y105.504 E451.20642
G1 X133.479 Y105.195 E451.24096
G1 X97.616 Y69.332 E456.30162
G1 X97.99 Y69.185 E456.34172
G1 X98.642 Y68.943 E456.41111
G1 X133.942 Y104.243 E461.39232
G1 X134.091 Y103.929 E461.427
G1 X134.381 Y103.268 E461.49902
G1 X99.69 Y68.577 E466.3943
G1 X100.376 Y68.35 E466.4664
G1 X100.759 Y68.232 E466.50639
G1 X134.795 Y102.268 E471.30923
G1 X135.127 Y101.385 E471.40336
G1 X135.179 Y101.237 E471.41901
G1 X101.86 Y67.919 E476.12061
G1 X102.051 Y67.866 E476.14039
G1 X102.852 Y67.67 E476.22267
G1 X102.994 Y67.639 E476.23718
G1 X135.529 Y100.173 E480.82815
G1 X135.628 Y99.861 E480.86081
G1 X135.846 Y99.101 E480.9397
G1 X135.851 Y99.081 E480.94176
G1 X104.157 Y67.387 E485.41412
G1 X104.193 Y67.38 E485.41778
G1 X105.035 Y67.223 E485.50324
G1 X105.357 Y67.173 E485.53576
G1 X136.13 Y97.946 E489.87816
G1 X136.18 Y97.725 E489.90077
G1 X136.374 Y96.776 E489.99742
G1 X106.597 Y66.999 E494.19928
G1 X106.795 Y66.972 E494.21922
G1 X107.612 Y66.893 E494.30112
G1 X107.882 Y66.87 E494.32815
G1 X136.572 Y95.56 E498.37662
G1 X136.648 Y94.995 E498.43351
G1 X136.719 Y94.293 E498.50391
G1 X109.211 Y66.785 E502.38559
G1 X109.738 Y66.764 E502.43821
G1 X110.556 Y66.753 E502.51984
G1 X110.594 Y66.753 E502.52363
G1 X136.808 Y92.968 E506.22278
G1 X136.83 Y92.406 E506.2789
G1 X136.835 Y91.704 E506.34895
G1 X136.833 Y91.578 E506.36152
G1 X112.046 Y66.791 E509.85924
G1 X112.618 Y66.818 E509.91637
G1 X113.384 Y66.879 E509.99305
