;FLAVOR:Marlin
;TIME:4637
;Filament used: 6.15705m
;Layer height: 0.2
;Generated with Cura_SteamEngine 3.3.1
M104 S220
M109 S220
M82 ;absolute extrusion mode
G21 ;metric values
G90 ;absolute positioning
M82 ;set extruder to absolute mode
M107 ;start with the fan off
G28 X0 Y0 ;move X/Y to min endstops
G28 Z0 ;move Z to min endstops
G1 Z15.0 F9000 ;move the platform down 15mm
G92 E0 ;zero the extruded length
G1 F200 E3 ;extrude 3mm of feed stock
G92 E0 ;zero the extruded length again
G1 F9000
;Put printing message on LCD screen
M117 Printing...
G92 E0
G1 F1500 E-6.5
;LAYER_COUNT:157
;LAYER:-6
M107
G0 F7200 X76.459 Y82.057 Z0.36
G1 F1500 E0
G1 F1350 X76.982 Y81.585 E0.08435
G1 X77.233 Y81.371 E0.12385
G1 X77.584 Y81.053 E0.18056
G1 X78.164 Y80.571 E0.27086
G1 X78.807 Y80.064 E0.3689
G1 X79.519 Y79.531 E0.4754
G1 X80.135 Y79.091 E0.56604
G1 X81.053 Y78.474 E0.69847
G1 X81.497 Y78.189 E0.76165
G1 X82.282 Y77.708 E0.87188
G1 X82.72 Y77.464 E0.93192
G1 X83.018 Y77.282 E0.97373
G1 X83.659 Y76.928 E1.0614
G1 X84.286 Y76.609 E1.14564
G1 X84.444 Y76.521 E1.16729
G1 X85.106 Y76.195 E1.25565
G1 X85.815 Y75.863 E1.34939
G1 X86.714 Y75.466 E1.46706
G1 X86.956 Y75.37 E1.49823
G1 X87.556 Y75.084 E1.57782
G1 X87.883 Y74.888 E1.62346
G1 X88.314 Y74.614 E1.68462
G1 X89.094 Y74.184 E1.79126
G1 X89.261 Y74.1 E1.81365
G1 X90.06 Y73.732 E1.91897
G1 X90.221 Y73.666 E1.93981
G1 X91.056 Y73.354 E2.04654
G1 X91.23 Y73.297 E2.06846
G1 X92.41 Y72.961 E2.21537
G1 X93.661 Y72.664 E2.36932
G1 X94.327 Y72.522 E2.45086
G1 X95.196 Y72.367 E2.55655
G1 X96.959 Y72.094 E2.77016
G1 X97.589 Y72.013 E2.84622
G1 X98.522 Y71.928 E2.9584
G1 X98.72 Y71.917 E2.98214
G1 X99.603 Y71.902 E3.08788
G1 X99.787 Y71.905 E3.10992
G1 X100.827 Y71.969 E3.23468
G1 X101.889 Y72.112 E3.36299
G1 X102.651 Y72.268 E3.45612
G1 X103.527 Y72.371 E3.56173
G1 X104.135 Y72.404 E3.63464
G1 X104.7 Y72.429 E3.70235
G1 X105.574 Y72.499 E3.80734
G1 X106.414 Y72.58 E3.90838
G1 X107.043 Y72.662 E3.98434
G1 X108.037 Y72.806 E4.1046
G1 X108.802 Y72.938 E4.19755
G1 X109.816 Y73.134 E4.32121
G1 X110.443 Y73.273 E4.39811
G1 X111.328 Y73.491 E4.50724
G1 X112.21 Y73.732 E4.61672
G1 X113.099 Y73.999 E4.72786
G1 X113.785 Y74.225 E4.81434
G1 X114.915 Y74.637 E4.95836
G1 X115.573 Y74.896 E5.04303
G1 X116.236 Y75.176 E5.1292
G1 X117.258 Y75.64 E5.2636
G1 X118.383 Y76.209 E5.41455
G1 X119.265 Y76.695 E5.53513
G1 X120.1 Y77.191 E5.65142
G1 X120.76 Y77.612 E5.74515
G1 X121.424 Y78.059 E5.84099
G1 X122.448 Y78.809 E5.99297
G1 X123.071 Y79.295 E6.08758
G1 X123.593 Y79.731 E6.16902
G1 X124.207 Y80.269 E6.26677
G1 X124.798 Y80.816 E6.36319
G1 X125.258 Y81.274 E6.44091
G1 X125.712 Y81.751 E6.51976
G1 X126.4 Y82.509 E6.64233
G1 X127.129 Y83.379 E6.77824
G1 X127.625 Y84.02 E6.87528
G1 X127.895 Y84.33 E6.92451
G1 X128.655 Y85.145 E7.05794
G1 X129.232 Y85.854 E7.16739
G1 X129.844 Y86.72 E7.29436
G1 X129.93 Y86.854 E7.31343
G1 X130.471 Y87.773 E7.44112
G1 X130.93 Y88.699 E7.56487
G1 X131.179 Y89.277 E7.64022
G1 X131.438 Y89.917 E7.72289
G1 X131.807 Y90.929 E7.85187
G1 X132.05 Y91.745 E7.95381
G1 X132.089 Y91.897 E7.9726
G1 X132.383 Y93.061 E8.11635
G1 X132.639 Y94.266 E8.26386
G1 X132.773 Y95.225 E8.3798
G1 X132.91 Y96.497 E8.53299
G1 X132.992 Y98.013 E8.71477
G1 X132.987 Y98.541 E8.77799
G1 X132.965 Y99.273 E8.86568
G1 X132.884 Y100.451 E9.00706
G1 X132.729 Y101.511 E9.13533
G1 X132.501 Y102.542 E9.26177
G1 X132.193 Y103.571 E9.39038
G1 X131.879 Y104.408 E9.49741
G1 X131.669 Y104.877 E9.55894
G1 X131.419 Y105.529 E9.64255
G1 X131.307 Y105.893 E9.68815
G1 X131.091 Y106.541 E9.76994
G1 X130.687 Y107.631 E9.90913
G1 X130.441 Y108.232 E9.98689
G1 X129.952 Y109.311 E10.12873
G1 X129.726 Y109.773 E10.19031
G1 X129.36 Y110.452 E10.28267
G1 X129.23 Y110.713 E10.31759
G1 X129.036 Y111.058 E10.36498
G1 X128.8 Y111.441 E10.41884
G1 X128.564 Y111.855 E10.4759
G1 X128.307 Y112.264 E10.53374
G1 X127.961 Y112.768 E10.60694
G1 X127.809 Y113.009 E10.64106
G1 X127.425 Y113.555 E10.72098
G1 X126.89 Y114.276 E10.82848
G1 X126.394 Y114.901 E10.92402
G1 X125.904 Y115.485 E11.0153
G1 X125.274 Y116.196 E11.12905
G1 X124.809 Y116.681 E11.2095
G1 X124.711 Y116.792 E11.22723
G1 X124.189 Y117.321 E11.31621
G1 X123.583 Y117.907 E11.41715
G1 X123.006 Y118.434 E11.51072
G1 X122.909 Y118.515 E11.52585
G1 X122.435 Y118.933 E11.60152
G1 X121.329 Y119.833 E11.77225
G1 X120.576 Y120.403 E11.88533
G1 X120.017 Y120.805 E11.96778
G1 X119.37 Y121.249 E12.06173
G1 X119.033 Y121.46 E12.10934
G1 X118.573 Y121.77 E12.17576
G1 X117.847 Y122.216 E12.27778
G1 X117.37 Y122.484 E12.34329
G1 X117.074 Y122.665 E12.38484
G1 X116.31 Y123.088 E12.4894
G1 X115.699 Y123.407 E12.57193
G1 X114.988 Y123.762 E12.66708
G1 X114.304 Y124.085 E12.75766
G1 X113.354 Y124.505 E12.88203
G1 X113.116 Y124.596 E12.91254
G1 X112.511 Y124.876 E12.99236
G1 X112.111 Y125.115 E13.04815
G1 X111.75 Y125.345 E13.0994
G1 X110.979 Y125.776 E13.20517
G1 X110.835 Y125.85 E13.22455
G1 X110.021 Y126.23 E13.33211
G1 X109.865 Y126.296 E13.3524
G1 X109.008 Y126.623 E13.46223
G1 X108.88 Y126.666 E13.47839
G1 X107.708 Y127.004 E13.62444
G1 X106.269 Y127.349 E13.80163
G1 X105.153 Y127.57 E13.93785
G1 X103.133 Y127.889 E14.18271
G1 X102.193 Y128.008 E14.29616
G1 X101.717 Y128.049 E14.35337
G1 X100.813 Y128.1 E14.46178
G1 X100.627 Y128.103 E14.48406
G1 X99.584 Y128.082 E14.60897
G1 X98.677 Y127.999 E14.71802
G1 X98.497 Y127.976 E14.73975
G1 X97.474 Y127.803 E14.86398
G1 X97.324 Y127.767 E14.88245
G1 X96.669 Y127.652 E14.96208
G1 X96.261 Y127.62 E15.01108
G1 X95.38 Y127.575 E15.11671
G1 X93.88 Y127.451 E15.29692
G1 X92.173 Y127.226 E15.50308
G1 X91.269 Y127.074 E15.61284
G1 X90.156 Y126.859 E15.74857
G1 X89.59 Y126.733 E15.818
G1 X88.756 Y126.53 E15.92078
G1 X87.987 Y126.316 E16.01635
G1 X87.848 Y126.283 E16.03346
G1 X86.95 Y126.013 E16.14574
G1 X86.324 Y125.796 E16.22507
G1 X86.01 Y125.7 E16.26439
G1 X85.317 Y125.448 E16.35268
G1 X84.624 Y125.182 E16.44156
G1 X83.65 Y124.773 E16.56805
G1 X82.898 Y124.434 E16.66681
G1 X82.569 Y124.266 E16.71105
G1 X82.274 Y124.128 E16.75004
G1 X81.639 Y123.801 E16.83556
G1 X80.72 Y123.295 E16.96118
G1 X79.944 Y122.831 E17.06944
G1 X79.657 Y122.643 E17.11052
G1 X79.172 Y122.341 E17.17893
G1 X78.586 Y121.941 E17.26388
G1 X77.819 Y121.393 E17.37675
G1 X76.888 Y120.67 E17.51789
G1 X76.338 Y120.206 E17.60405
G1 X75.58 Y119.531 E17.72558
G1 X74.973 Y118.959 E17.82545
G1 X74.389 Y118.358 E17.92579
G1 X73.545 Y117.428 E18.07617
G1 X72.888 Y116.641 E18.19892
G1 X72.479 Y116.111 E18.27908
G1 X72.379 Y115.993 E18.2976
G1 X72.397 Y115.978 E18.3004
G1 X71.42 Y114.935 E18.47152
G1 X71.313 Y114.812 E18.49104
G1 X70.743 Y114.107 E18.59959
G1 X70.14 Y113.248 E18.72526
G1 X70.035 Y113.084 E18.74858
G1 X69.581 Y112.318 E18.85519
G1 X69.51 Y112.186 E18.87314
G1 X69.038 Y111.226 E19.00123
G1 X68.812 Y110.694 E19.07044
G1 X68.53 Y109.989 E19.16136
G1 X68.116 Y108.82 E19.30985
G1 X67.9 Y108.046 E19.40606
G1 X67.585 Y106.793 E19.56076
G1 X67.395 Y105.902 E19.66985
G1 X67.362 Y105.722 E19.69176
G1 X67.231 Y104.79 E19.80445
G1 X67.093 Y103.492 E19.96074
G1 X67.01 Y101.994 E20.14038
G1 X67.037 Y100.75 E20.28937
G1 X67.101 Y99.735 E20.41114
G1 X67.12 Y99.543 E20.43425
G1 X67.269 Y98.514 E20.55874
G1 X67.5 Y97.465 E20.68735
G1 X67.759 Y96.579 E20.79788
G1 X68.123 Y95.593 E20.92373
G1 X68.332 Y95.126 E20.98499
G1 X68.579 Y94.481 E21.06769
G1 X68.929 Y93.399 E21.20385
G1 X69.304 Y92.404 E21.33117
G1 X69.573 Y91.741 E21.41684
G1 X69.974 Y90.848 E21.53405
G1 X70.254 Y90.27 E21.61095
G1 X70.645 Y89.545 E21.70958
G1 X70.798 Y89.239 E21.75054
G1 X71.198 Y88.565 E21.84439
G1 X71.426 Y88.162 E21.89983
G1 X71.669 Y87.775 E21.95455
G1 X72.092 Y87.153 E22.04461
G1 X72.253 Y86.904 E22.08012
G1 X72.607 Y86.401 E22.15376
G1 X73.208 Y85.606 E22.27309
G1 X73.585 Y85.129 E22.34589
G1 X74.283 Y84.301 E22.47556
G1 X74.793 Y83.733 E22.56696
G1 X75.348 Y83.145 E22.66378
G1 X76.015 Y82.476 E22.77689
G1 X76.459 Y82.057 E22.84999
G0 F7200 X76.8 Y81.749
G1 F1350 X76.8 Y120.595 E27.50127
G0 F7200 X78.4 Y121.808
G1 F1350 X78.4 Y80.384 E32.46124
G0 F7200 X80 Y79.187
G1 F1350 X80 Y122.864 E37.69097
G0 F7200 X81.6 Y123.779
G1 F1350 X81.6 Y78.125 E43.15742
G0 F7200 X83.2 Y77.181
G1 F1350 X83.2 Y124.57 E48.83161
G0 F7200 X84.8 Y125.249
G1 F1350 X84.8 Y76.345 E54.6872
G0 F7200 X86.4 Y75.604
G1 F1350 X86.4 Y125.822 E60.70013
G0 F7200 X88 Y126.319
G1 F1350 X88 Y74.813 E66.86728
G0 F7200 X89.6 Y73.943
G1 F1350 X89.6 Y126.735 E73.18841
G0 F7200 X91.2 Y127.06
G1 F1350 X91.2 Y73.306 E79.62472
G0 F7200 X92.8 Y72.868
G1 F1350 X92.8 Y127.308 E86.14318
G0 F7200 X94.4 Y127.493
G1 F1350 X94.4 Y72.508 E92.72689
G0 F7200 X96 Y72.242
G1 F1350 X96 Y127.606 E99.35598
G0 F7200 X97.6 Y127.824
G1 F1350 X97.6 Y72.011 E106.03883
G0 F7200 X99.2 Y71.908
G1 F1350 X99.2 Y128.046 E112.7606
G0 F7200 X100.8 Y128.101
G1 F1350 X100.8 Y71.968 E119.48177
G0 F7200 X102.4 Y72.217
G1 F1350 X102.4 Y127.982 E126.15887
G0 F7200 X104 Y127.753
G1 F1350 X104 Y72.397 E132.787
G0 F7200 X105.6 Y72.502
G1 F1350 X105.6 Y127.482 E139.37012
G0 F7200 X107.2 Y127.126
G1 F1350 X107.2 Y72.685 E145.88869
G0 F7200 X108.8 Y72.938
G1 F1350 X108.8 Y126.69 E152.32476
G0 F7200 X110.4 Y126.054
G1 F1350 X110.4 Y73.264 E158.64565
G0 F7200 X112 Y73.675
G1 F1350 X112 Y125.186 E164.8134
G0 F7200 X113.6 Y124.397
G1 F1350 X113.6 Y74.165 E170.828
G0 F7200 X115.2 Y74.75
G1 F1350 X115.2 Y123.657 E176.68396
G0 F7200 X116.8 Y122.817
G1 F1350 X116.8 Y75.433 E182.35755
G0 F7200 X118.4 Y76.219
G1 F1350 X118.4 Y121.877 E187.82448
G0 F7200 X120 Y120.817
G1 F1350 X120 Y77.132 E193.05517
G0 F7200 X121.6 Y78.188
G1 F1350 X121.6 Y119.613 E198.01525
G0 F7200 X123.2 Y118.257
G1 F1350 X123.2 Y79.403 E202.66749
G0 F7200 X124.8 Y80.818
G1 F1350 X124.8 Y116.692 E206.96292
G0 F7200 X126.4 Y114.894
G1 F1350 X126.4 Y82.509 E210.84058
G0 F7200 X128 Y84.443
G1 F1350 X128 Y112.712 E214.22542
G0 F7200 X129.6 Y110.007
G1 F1350 X129.6 Y86.375 E217.05503
G0 F7200 X131.2 Y89.329
G1 F1350 X131.2 Y106.214 E219.07678
G0 F7200 X132.8 Y101.026
G1 F1350 X132.8 Y95.476 E219.74132
G0 F7200 X75.2 Y83.301
G1 F1350 X75.2 Y119.172 E224.03638
G0 F7200 X73.6 Y117.488
G1 F1350 X73.6 Y85.111 E227.91309
G0 F7200 X72 Y87.288
G1 F1350 X72 Y115.554 E231.29756
G0 F7200 X70.4 Y113.618
G1 F1350 X70.4 Y89.999 E234.12562
G0 F7200 X68.8 Y93.797
G1 F1350 X68.8 Y110.664 E236.14521
G0 F7200 X67.2 Y104.498
G1 F1350 X67.2 Y98.99 E236.80472
G0 F7200 X73.335 Y117.176
;TIME_ELAPSED:98.826535
;LAYER:-5
G0 X73.335 Y117.176 Z0.66
;TYPE:SUPPORT
G1 F1350 X76.508 Y120.349 E237.25247
G1 X76.887 Y120.669 E237.30196
G1 X77.819 Y121.392 E237.41966
G1 X78.586 Y121.94 E237.51372
G1 X79.171 Y122.34 E237.58443
G1 X79.656 Y122.642 E237.64144
G1 X79.944 Y122.83 E237.67575
G1 X80.719 Y123.294 E237.76588
G1 X81.049 Y123.476 E237.80349
G1 X69.268 Y111.695 E239.46591
G1 X69.037 Y111.225 E239.51817
G1 X68.811 Y110.693 E239.57584
G1 X68.529 Y109.987 E239.6517
G1 X68.284 Y109.296 E239.72485
G1 X83.839 Y124.851 E241.91983
G1 X84.624 Y125.181 E242.0048
G1 X85.317 Y125.447 E242.07887
G1 X86.009 Y125.699 E242.15235
G1 X86.141 Y125.739 E242.16611
G1 X67.715 Y107.313 E244.76622
G1 X67.584 Y106.792 E244.81982
G1 X67.395 Y105.901 E244.91071
G1 X67.361 Y105.72 E244.92908
G1 X67.332 Y105.516 E244.94964
G1 X88.186 Y126.37 E247.89237
G1 X88.756 Y126.529 E247.95141
G1 X89.589 Y126.732 E248.03696
G1 X90.068 Y126.837 E248.08589
G1 X67.136 Y103.906 E251.32177
G1 X67.093 Y103.49 E251.3635
G1 X67.031 Y102.386 E251.47384
G1 X91.807 Y127.163 E254.97007
G1 X92.172 Y127.225 E255.00701
G1 X93.452 Y127.393 E255.13582
G1 X67.031 Y100.972 E258.86411
G1 X67.037 Y100.749 E258.88637
G1 X67.1 Y99.733 E258.98794
G1 X67.11 Y99.637 E258.99757
G1 X95.016 Y127.543 E262.93541
G1 X95.379 Y127.574 E262.97176
G1 X96.26 Y127.619 E263.05978
G1 X96.527 Y127.639 E263.0865
G1 X67.292 Y98.405 E267.2118
G1 X67.499 Y97.464 E267.30794
G1 X67.559 Y97.258 E267.32935
G1 X98.231 Y127.929 E271.65743
G1 X98.497 Y127.975 E271.68437
G1 X98.677 Y127.998 E271.70247
G1 X99.583 Y128.081 E271.79325
G1 X99.801 Y128.086 E271.81501
G1 X67.902 Y96.187 E276.3163
G1 X68.122 Y95.592 E276.3796
G1 X68.307 Y95.177 E276.42494
G1 X101.206 Y128.076 E281.06734
G1 X101.717 Y128.048 E281.11841
G1 X102.193 Y128.006 E281.16609
G1 X102.51 Y127.966 E281.19797
G1 X68.687 Y94.143 E285.97076
G1 X68.929 Y93.398 E286.04892
G1 X69.046 Y93.087 E286.08207
G1 X103.749 Y127.791 E290.97911
G1 X104.97 Y127.598 E291.10246
G1 X69.44 Y92.067 E296.1162
G1 X69.572 Y91.74 E296.15138
G1 X69.868 Y91.081 E296.22347
G1 X106.156 Y127.369 E301.34409
G1 X106.268 Y127.347 E301.35548
G1 X107.301 Y127.1 E301.46146
G1 X70.329 Y90.128 E306.67861
G1 X70.644 Y89.544 E306.74482
G1 X70.798 Y89.238 E306.779
G1 X70.818 Y89.203 E306.78302
G1 X108.414 Y126.799 E312.08822
G1 X108.88 Y126.665 E312.13661
G1 X109.008 Y126.622 E312.15008
G1 X109.473 Y126.444 E312.19976
G1 X71.34 Y88.311 E317.58074
G1 X71.425 Y88.161 E317.59794
G1 X71.668 Y87.773 E317.64362
G1 X71.89 Y87.447 E317.68298
G1 X110.464 Y126.021 E323.12618
G1 X110.834 Y125.849 E323.1669
G1 X110.978 Y125.775 E323.18305
G1 X111.398 Y125.54 E323.23107
G1 X72.462 Y86.604 E328.72536
G1 X72.607 Y86.399 E328.75042
G1 X73.065 Y85.793 E328.82621
G1 X112.282 Y125.01 E334.36015
G1 X112.51 Y124.875 E334.38659
G1 X113.115 Y124.595 E334.45311
G1 X113.235 Y124.549 E334.46594
G1 X73.689 Y85.003 E340.0463
G1 X74.282 Y84.299 E340.13815
G1 X74.338 Y84.237 E340.14648
G1 X114.221 Y124.12 E345.77441
G1 X114.303 Y124.084 E345.78334
G1 X114.987 Y123.761 E345.85882
G1 X115.179 Y123.665 E345.88024
G1 X75.012 Y83.497 E351.54831
G1 X75.347 Y83.144 E351.59687
G1 X75.709 Y82.78 E351.64809
G1 X116.116 Y123.187 E357.34995
G1 X116.309 Y123.086 E357.37169
G1 X117.031 Y122.687 E357.454
G1 X76.428 Y82.085 E363.18345
G1 X76.458 Y82.056 E363.18761
G1 X76.982 Y81.583 E363.25805
G1 X77.176 Y81.419 E363.2834
G1 X117.924 Y122.167 E369.03338
G1 X118.573 Y121.769 E369.10934
G1 X118.792 Y121.62 E369.13577
G1 X77.933 Y80.762 E374.90135
G1 X78.163 Y80.57 E374.93124
G1 X78.718 Y80.132 E375.00179
G1 X119.644 Y121.058 E380.77689
G1 X120.016 Y120.804 E380.82184
G1 X120.474 Y120.474 E380.87816
G1 X79.526 Y79.526 E386.65637
G1 X80.134 Y79.09 E386.73102
G1 X80.356 Y78.942 E386.75764
G1 X121.282 Y119.868 E392.53274
G1 X121.328 Y119.833 E392.53851
G1 X122.062 Y119.234 E392.63304
G1 X81.204 Y78.376 E398.39855
G1 X81.496 Y78.189 E398.43315
G1 X82.076 Y77.834 E398.501
G1 X122.827 Y118.585 E404.25141
G1 X122.908 Y118.514 E404.26215
G1 X123.004 Y118.434 E404.27462
G1 X123.572 Y117.915 E404.35139
G1 X82.969 Y77.312 E410.08092
G1 X83.017 Y77.282 E410.08656
G1 X83.658 Y76.928 E410.15963
G1 X83.884 Y76.813 E410.18493
G1 X124.29 Y117.219 E415.88665
G1 X124.71 Y116.792 E415.94642
G1 X124.808 Y116.681 E415.96119
G1 X124.983 Y116.498 E415.98646
G1 X84.82 Y76.335 E421.65389
G1 X85.105 Y76.194 E421.68562
G1 X85.779 Y75.879 E421.75985
G1 X125.659 Y115.76 E427.38742
G1 X125.903 Y115.484 E427.42418
G1 X126.311 Y114.998 E427.48749
G1 X86.761 Y75.447 E433.0685
G1 X86.955 Y75.369 E433.08936
G1 X87.555 Y75.083 E433.15568
G1 X87.715 Y74.987 E433.1743
G1 X126.938 Y114.21 E438.70909
G1 X127.424 Y113.554 E438.79055
G1 X127.537 Y113.395 E438.81001
G1 X88.599 Y74.456 E444.30466
G1 X89.092 Y74.183 E444.36089
G1 X89.26 Y74.099 E444.37963
G1 X89.531 Y73.975 E444.40937
G1 X128.109 Y112.553 E449.85314
G1 X128.306 Y112.263 E449.88812
G1 X128.563 Y111.854 E449.93632
G1 X128.658 Y111.688 E449.9554
G1 X90.523 Y73.553 E455.33666
G1 X91.055 Y73.353 E455.39337
G1 X91.229 Y73.297 E455.41161
G1 X91.581 Y73.196 E455.44815
G1 X129.182 Y110.797 E460.75406
G1 X129.229 Y110.713 E460.76366
G1 X129.358 Y110.452 E460.79271
G1 X129.672 Y109.873 E460.85844
G1 X92.692 Y72.893 E466.07671
G1 X93.66 Y72.663 E466.17599
G1 X93.839 Y72.626 E466.19423
G1 X130.13 Y108.917 E471.31528
G1 X130.44 Y108.231 E471.39039
G1 X130.562 Y107.934 E471.42243
G1 X95.025 Y72.397 E476.43709
G1 X95.194 Y72.366 E476.45423
G1 X96.246 Y72.204 E476.56044
G1 X130.953 Y106.911 E481.45797
G1 X131.09 Y106.541 E481.49734
G1 X131.306 Y105.892 E481.56559
G1 X131.316 Y105.86 E481.56893
G1 X97.483 Y72.027 E486.34313
G1 X97.587 Y72.013 E486.3536
