;FLAVOR:Marlin
;TIME:6937
;Filament used: 6.1984m
;Layer height: 0.15
;Generated with Cura_SteamEngine 3.3.1
M82 ;absolute extrusion mode
 ;Basic settings: Layer height: 0.15 Walls: 1 Fill: 80
 ;metric values
 M107
 G28
 G29
 G90        ;absolute positioning
 G92 E0; reset extruder distance
 G1 Z5 F300 ;move nozzle up 5mm for safe homing
 G1 X0 Y0 Z0 F5000; move nozzle to home
 M300 S600P200
 M300 S800 P200
 M190 S65 ;Uncomment to add your own bed temperature line
 M109 S210 ;Uncomment to add your own temperature line
 M82        ;set extruder to absolute mode
 M107       ;start with the fan off
 G1 Z15.0 F120 ;move the platform down 15mm
 G92 E0                  ;zero the extruded length
 G1 F200 E3              ;extrude 3mm of feed stock
 G92 E0                  ;zero the extruded length again
 G1 F120
 ;Put printing message on LCD screen
 M117 Printing...

G92 E0
G1 F1500 E-3
;LAYER_COUNT:67
;LAYER:-6
M107
G0 F7200 X75.848 Y101.958 Z0.24
G1 F1500 E0
G1 F1350 X76.545 Y101.506 E0.06631
G1 X77.841 Y100.712 E0.18764
G1 X78.957 Y100.096 E0.28939
G1 X79.892 Y99.668 E0.37147
G1 X81.327 Y99.075 E0.49542
G1 X82.301 Y98.713 E0.57836
G1 X83.592 Y98.346 E0.6855
G1 X85.013 Y98.005 E0.80215
G1 X85.614 Y97.875 E0.85123
G1 X86.687 Y97.704 E0.93797
G1 X87.295 Y97.642 E0.98675
G1 X88.819 Y97.522 E1.10878
G1 X89.947 Y97.477 E1.19889
G1 X119.948 Y97.475 E3.5937
G1 X121.181 Y97.521 E3.69219
G1 X122.666 Y97.639 E3.81111
G1 X123.696 Y97.757 E3.89386
G1 X124.438 Y97.883 E3.95394
G1 X124.987 Y98.005 E3.99883
G1 X126.562 Y98.387 E4.1282
G1 X127.751 Y98.732 E4.22703
G1 X128.684 Y99.079 E4.30649
G1 X130.108 Y99.668 E4.4295
G1 X131.043 Y100.096 E4.51158
G1 X132.152 Y100.708 E4.61269
G1 X133.45 Y101.503 E4.73419
G1 X134.152 Y101.958 E4.80097
G1 X135.332 Y102.863 E4.91968
G1 X136.482 Y103.841 E5.04018
G1 X137.389 Y104.675 E5.13854
G1 X138.153 Y105.502 E5.22841
G1 X139.141 Y106.656 E5.34968
G1 X140.12 Y107.93 E5.47793
G1 X140.577 Y108.633 E5.54486
G1 X141.36 Y109.912 E5.66457
G1 X141.982 Y111.038 E5.76726
G1 X142.415 Y111.989 E5.85067
G1 X142.993 Y113.384 E5.9712
G1 X143.369 Y114.398 E6.05753
G1 X143.721 Y115.632 E6.15996
G1 X144.075 Y117.112 E6.28143
G1 X144.19 Y117.634 E6.3241
G1 X144.352 Y118.629 E6.40457
G1 X144.436 Y119.424 E6.46839
G1 X144.557 Y120.974 E6.59249
G1 X144.598 Y122.02 E6.67605
G1 X144.6 Y152.026 E9.07126
G1 X144.554 Y153.26 E9.16983
G1 X144.439 Y154.711 E9.28602
G1 X144.317 Y155.785 E9.3723
G1 X144.193 Y156.504 E9.43054
G1 X144.074 Y157.047 E9.47492
G1 X143.707 Y158.573 E9.6002
G1 X143.357 Y159.791 E9.70136
G1 X143.007 Y160.731 E9.78143
G1 X142.417 Y162.159 E9.90476
G1 X141.955 Y163.167 E9.99328
G1 X141.322 Y164.306 E10.09729
G1 X140.544 Y165.569 E10.2157
G1 X140.1 Y166.25 E10.2806
G1 X139.204 Y167.417 E10.39804
G1 X138.226 Y168.565 E10.51843
G1 X137.425 Y169.437 E10.61294
G1 X136.576 Y170.225 E10.70541
G1 X135.419 Y171.216 E10.82701
G1 X134.238 Y172.129 E10.94617
G1 X133.464 Y172.638 E11.02012
G1 X132.163 Y173.435 E11.1419
G1 X131.037 Y174.057 E11.24459
G1 X130.086 Y174.49 E11.328
G1 X128.67 Y175.076 E11.45033
G1 X127.71 Y175.434 E11.53211
G1 X126.485 Y175.785 E11.63383
G1 X124.934 Y176.156 E11.76113
G1 X124.433 Y176.267 E11.8021
G1 X123.416 Y176.432 E11.88434
G1 X122.705 Y176.508 E11.94142
G1 X121.181 Y176.628 E12.06345
G1 X120.053 Y176.673 E12.15356
G1 X90.052 Y176.675 E14.54837
G1 X88.819 Y176.629 E14.64686
G1 X87.334 Y176.511 E14.76577
G1 X86.304 Y176.393 E14.84853
G1 X85.618 Y176.276 E14.90408
G1 X84.973 Y176.135 E14.95678
G1 X83.515 Y175.785 E15.07647
G1 X82.29 Y175.434 E15.17819
G1 X81.33 Y175.076 E15.25998
G1 X79.914 Y174.49 E15.38231
G1 X78.962 Y174.057 E15.46579
G1 X77.837 Y173.435 E15.56841
G1 X76.536 Y172.638 E15.69019
G1 X75.762 Y172.129 E15.76414
G1 X74.581 Y171.216 E15.8833
G1 X73.424 Y170.225 E16.0049
G1 X72.606 Y169.47 E16.09376
G1 X71.766 Y168.557 E16.19279
G1 X70.788 Y167.407 E16.3133
G1 X69.896 Y166.244 E16.4303
G1 X69.426 Y165.523 E16.499
G1 X68.664 Y164.281 E16.61531
G1 X68.024 Y163.124 E16.72086
G1 X67.594 Y162.184 E16.80337
G1 X66.995 Y160.734 E16.9286
G1 X66.643 Y159.791 E17.00895
G1 X66.293 Y158.573 E17.11011
G1 X65.926 Y157.047 E17.2354
G1 X65.8 Y156.462 E17.28316
G1 X65.629 Y155.389 E17.3699
G1 X65.566 Y154.772 E17.41941
G1 X65.447 Y153.26 E17.54047
G1 X65.402 Y152.131 E17.63067
G1 X65.4 Y122.121 E20.02619
G1 X65.453 Y120.826 E20.12965
G1 X65.572 Y119.327 E20.24969
G1 X65.706 Y118.221 E20.33862
G1 X65.803 Y117.665 E20.38367
G1 X65.923 Y117.141 E20.42658
G1 X66.288 Y115.596 E20.5533
G1 X66.643 Y114.359 E20.65603
G1 X66.993 Y113.419 E20.7361
G1 X67.623 Y111.9 E20.86737
G1 X68.042 Y110.988 E20.94748
G1 X68.678 Y109.844 E21.05197
G1 X69.456 Y108.581 E21.17038
G1 X69.905 Y107.892 E21.23602
G1 X70.796 Y106.733 E21.35272
G1 X71.774 Y105.585 E21.4731
G1 X72.575 Y104.713 E21.56762
G1 X73.427 Y103.922 E21.66042
G1 X74.581 Y102.934 E21.78169
G1 X75.848 Y101.958 E21.90935
G1 F1500 E18.90935
G0 F7200 X75.2 Y102.457
G1 F1500 E21.90935
G1 F1350 X75.2 Y171.694 E27.43615
G1 F1500 E24.43615
G0 F7200 X76.8 Y172.799
G1 F1500 E27.43615
G1 F1350 X76.8 Y101.349 E33.1396
G1 F1500 E30.1396
G0 F7200 X78.4 Y100.403
G1 F1500 E33.1396
G1 F1350 X78.4 Y173.746 E38.99415
G1 F1500 E35.99415
G0 F7200 X80 Y174.525
G1 F1500 E38.99415
G1 F1350 X80 Y99.623 E44.97315
G1 F1500 E41.97315
G0 F7200 X81.6 Y98.973
G1 F1500 E44.97315
G1 F1350 X81.6 Y175.176 E51.05601
G1 F1500 E48.05601
G0 F7200 X83.2 Y175.694
G1 F1500 E51.05601
G1 F1350 X83.2 Y98.457 E57.2214
G1 F1500 E54.2214
G0 F7200 X84.8 Y98.056
G1 F1500 E57.2214
G1 F1350 X84.8 Y176.093 E63.45065
G1 F1500 E60.45065
G0 F7200 X86.4 Y176.403
G1 F1500 E63.45065
G1 F1350 X86.4 Y97.749 E69.72915
G1 F1500 E66.72915
G0 F7200 X88 Y97.586
G1 F1500 E69.72915
G1 F1350 X88 Y176.563 E76.03344
G1 F1500 E73.03344
G0 F7200 X89.6 Y176.658
G1 F1500 E76.03344
G1 F1350 X89.6 Y97.49 E82.35297
G1 F1500 E79.35297
G0 F7200 X91.2 Y97.476
G1 F1500 E82.35297
G1 F1350 X91.2 Y176.675 E88.67498
G1 F1500 E85.67498
G0 F7200 X92.8 Y176.675
G1 F1500 E88.67498
G1 F1350 X92.8 Y97.476 E94.99698
G1 F1500 E91.99698
G0 F7200 X94.4 Y97.476
G1 F1500 E94.99698
G1 F1350 X94.4 Y176.675 E101.31899
G1 F1500 E98.31899
G0 F7200 X96 Y176.675
G1 F1500 E101.31899
G1 F1350 X96 Y97.476 E107.641
G1 F1500 E104.641
G0 F7200 X97.6 Y97.476
G1 F1500 E107.641
G1 F1350 X97.6 Y176.675 E113.963
G1 F1500 E110.963
G0 F7200 X99.2 Y176.675
G1 F1500 E113.963
G1 F1350 X99.2 Y97.476 E120.28501
G1 F1500 E117.28501
G0 F7200 X100.8 Y97.476
G1 F1500 E120.28501
G1 F1350 X100.8 Y176.675 E126.60702
G1 F1500 E123.60702
G0 F7200 X102.4 Y176.675
G1 F1500 E126.60702
G1 F1350 X102.4 Y97.476 E132.92902
G1 F1500 E129.92902
G0 F7200 X104 Y97.476
G1 F1500 E132.92902
G1 F1350 X104 Y176.675 E139.25103
G1 F1500 E136.25103
G0 F7200 X105.6 Y176.674
G1 F1500 E139.25103
G1 F1350 X105.6 Y97.475 E145.57304
G1 F1500 E142.57304
G0 F7200 X107.2 Y97.475
G1 F1500 E145.57304
G1 F1350 X107.2 Y176.674 E151.89504
G1 F1500 E148.89504
G0 F7200 X108.8 Y176.674
G1 F1500 E151.89504
G1 F1350 X108.8 Y97.475 E158.21705
G1 F1500 E155.21705
G0 F7200 X110.4 Y97.475
G1 F1500 E158.21705
G1 F1350 X110.4 Y176.674 E164.53906
G1 F1500 E161.53906
G0 F7200 X112 Y176.674
G1 F1500 E164.53906
G1 F1350 X112 Y97.475 E170.86106
G1 F1500 E167.86106
G0 F7200 X113.6 Y97.475
G1 F1500 E170.86106
G1 F1350 X113.6 Y176.674 E177.18307
G1 F1500 E174.18307
G0 F7200 X115.2 Y176.674
G1 F1500 E177.18307
G1 F1350 X115.2 Y97.475 E183.50508
G1 F1500 E180.50508
G0 F7200 X116.8 Y97.475
G1 F1500 E183.50508
G1 F1350 X116.8 Y176.674 E189.82708
G1 F1500 E186.82708
G0 F7200 X118.4 Y176.674
G1 F1500 E189.82708
G1 F1350 X118.4 Y97.475 E196.14909
G1 F1500 E193.14909
G0 F7200 X120 Y97.477
G1 F1500 E196.14909
G1 F1350 X120 Y176.674 E202.47094
G1 F1500 E199.47094
G0 F7200 X121.6 Y176.596
G1 F1500 E202.47094
G1 F1350 X121.6 Y97.555 E208.78033
G1 F1500 E205.78033
G0 F7200 X123.2 Y97.701
G1 F1500 E208.78033
G1 F1350 X123.2 Y176.456 E215.0669
G1 F1500 E212.0669
G0 F7200 X124.8 Y176.186
G1 F1500 E215.0669
G1 F1350 X124.8 Y97.964 E221.31091
G1 F1500 E218.31091
G0 F7200 X126.4 Y98.348
G1 F1500 E221.31091
G1 F1350 X126.4 Y175.806 E227.49395
G1 F1500 E224.49395
G0 F7200 X128 Y175.326
G1 F1500 E227.49395
G1 F1350 X128 Y98.825 E233.60059
G1 F1500 E230.60059
G0 F7200 X129.6 Y99.458
G1 F1500 E233.60059
G1 F1350 X129.6 Y174.692 E239.60609
G1 F1500 E236.60609
G0 F7200 X131.2 Y173.967
G1 F1500 E239.60609
G1 F1350 X131.2 Y100.183 E245.49585
G1 F1500 E242.49585
G0 F7200 X132.8 Y101.105
G1 F1500 E245.49585
G1 F1350 X132.8 Y173.045 E251.23841
G1 F1500 E248.23841
G0 F7200 X134.4 Y172.004
G1 F1500 E251.23841
G1 F1350 X134.4 Y102.149 E256.81454
G1 F1500 E253.81454
G0 F7200 X136 Y103.432
G1 F1500 E256.81454
G1 F1350 X136 Y170.719 E262.18568
G1 F1500 E259.18568
G0 F7200 X137.6 Y169.247
G1 F1500 E262.18568
G1 F1350 X137.6 Y104.904 E267.32181
G1 F1500 E264.32181
G0 F7200 X139.2 Y106.733
G1 F1500 E267.32181
G1 F1350 X139.2 Y167.422 E272.16627
G1 F1500 E269.16627
G0 F7200 X140.8 Y165.154
G1 F1500 E272.16627
G1 F1350 X140.8 Y108.998 E276.64889
G1 F1500 E273.64889
G0 F7200 X142.4 Y111.957
G1 F1500 E276.64889
G1 F1350 X142.4 Y162.197 E280.65926
G1 F1500 E277.65926
G0 F7200 X144 Y157.355
G1 F1500 E280.65926
G1 F1350 X144 Y116.799 E283.89662
G1 F1500 E280.89662
G0 F7200 X73.6 Y103.773
G1 F1500 E283.89662
G1 F1350 X73.6 Y170.375 E289.21308
G1 F1500 E286.21308
G0 F7200 X72 Y168.811
G1 F1500 E289.21308
G1 F1350 X72 Y105.338 E294.27977
G1 F1500 E291.27977
G0 F7200 X70.4 Y107.248
G1 F1500 E294.27977
G1 F1350 X70.4 Y166.901 E299.04153
G1 F1500 E296.04153
G0 F7200 X68.8 Y164.502
G1 F1500 E299.04153
G1 F1350 X68.8 Y109.645 E303.42045
G1 F1500 E300.42045
G0 F7200 X67.2 Y112.919
G1 F1500 E303.42045
G1 F1350 X67.2 Y161.23 E307.27684
G1 F1500 E304.27684
G0 F7200 X65.6 Y155.104
M104 S210
G1 F1500 E307.27684
G1 F1350 X65.6 Y119.095 E310.15124
G1 F1500 E307.15124
G0 F7200 X138.152 Y105.502
;TIME_ELAPSED:193.571154
;LAYER:-5
M140 S65
G0 X138.152 Y105.502 Z0.464
;TYPE:SUPPORT
G1 F1500 E310.15124
G1 F1350 X137.388 Y104.675 E310.23512
G1 X136.481 Y103.841 E310.32692
G1 X135.721 Y103.194 E310.40128
G1 X138.887 Y106.36 E310.73486
G1 F1500 E307.73486
G0 F7200 X135.721 Y103.194
G1 F1500 E310.73486
G1 F1350 X135.331 Y102.862 E310.77301
G1 X134.15 Y101.957 E310.88387
G1 X133.448 Y101.503 E310.94615
G1 X132.151 Y100.707 E311.05953
G1 X131.413 Y100.3 E311.12232
G1 X141.772 Y110.66 E312.21382
G1 X141.981 Y111.038 E312.246
G1 X142.414 Y111.988 E312.32379
G1 X142.928 Y113.229 E312.42386
G1 X128.844 Y99.146 E313.90774
G1 X128.682 Y99.079 E313.9208
G1 X127.75 Y98.731 E313.99492
G1 X126.716 Y98.432 E314.07511
G1 X143.642 Y115.358 E315.85848
G1 X143.72 Y115.632 E315.8797
G1 X144.074 Y117.112 E315.99308
G1 X144.1 Y117.23 E316.00208
G1 X124.843 Y97.973 E318.03105
G1 X124.437 Y97.882 E318.06205
G1 X123.694 Y97.756 E318.11819
G1 X123.151 Y97.695 E318.1589
G1 X144.382 Y118.926 E320.39586
G1 X144.435 Y119.423 E320.4331
G1 X144.517 Y120.476 E320.51179
G1 X121.595 Y97.553 E322.92696
G1 X121.18 Y97.52 E322.95798
G1 X120.109 Y97.481 E323.03782
G1 X144.596 Y121.968 E325.61784
G1 X144.597 Y122.019 E325.62164
G1 X144.598 Y123.385 E325.72341
G1 X118.689 Y97.476 E328.45326
G1 X117.275 Y97.476 E328.5586
G1 X144.598 Y124.799 E331.43743
G1 X144.598 Y126.213 E331.54278
G1 X115.86 Y97.476 E334.57064
G1 X114.446 Y97.476 E334.67598
G1 X144.598 Y127.627 E337.85283
G1 X144.598 Y129.042 E337.95825
G1 X113.032 Y97.476 E341.28413
G1 X111.618 Y97.476 E341.38948
G1 X144.599 Y130.456 E344.86439
G1 X144.599 Y131.871 E344.96981
G1 X110.204 Y97.476 E348.59376
G1 X108.789 Y97.476 E348.69919
G1 X144.599 Y133.285 E352.47217
G1 X144.599 Y134.699 E352.57752
G1 X107.375 Y97.476 E356.49949
G1 X105.961 Y97.476 E356.60484
G1 X144.599 Y136.113 E360.67579
G1 X144.599 Y137.528 E360.78121
G1 X104.547 Y97.476 E365.0012
G1 X103.132 Y97.476 E365.10662
G1 X144.599 Y138.942 E369.47564
G1 X144.599 Y140.357 E369.58106
G1 X101.718 Y97.476 E374.09912
G1 X100.304 Y97.476 E374.20447
G1 X144.599 Y141.771 E378.87151
G1 X144.599 Y143.185 E378.97686
G1 X98.89 Y97.476 E383.79288
G1 X97.476 Y97.476 E383.89823
G1 X144.6 Y144.6 E388.86334
G1 X144.6 Y146.014 E388.96869
G1 X96.061 Y97.476 E394.08284
G1 X94.647 Y97.476 E394.18819
G1 X144.6 Y147.428 E399.45132
G1 X144.6 Y148.843 E399.55674
G1 X93.233 Y97.476 E404.96891
G1 X91.819 Y97.476 E405.07426
G1 X144.6 Y150.257 E410.63541
G1 X144.6 Y151.671 E410.74075
G1 X90.405 Y97.476 E416.45089
G1 X89.946 Y97.476 E416.48508
G1 X89.027 Y97.512 E416.5536
G1 X144.562 Y153.047 E422.40492
G1 X144.553 Y153.259 E422.42073
G1 X144.466 Y154.365 E422.50339
G1 X87.709 Y97.609 E428.48341
G1 X87.295 Y97.641 E428.51434
G1 X86.687 Y97.703 E428.55987
G1 X86.431 Y97.744 E428.57919
G1 X144.333 Y155.646 E434.6799
G1 X144.316 Y155.784 E434.69026
G1 X144.192 Y156.503 E434.74462
G1 X144.118 Y156.846 E434.77076
G1 X85.229 Y97.957 E440.97547
G1 X85.013 Y98.004 E440.99194
G1 X84.084 Y98.227 E441.06312
G1 X143.847 Y157.989 E447.35986
G1 X143.707 Y158.572 E447.40453
G1 X143.553 Y159.109 E447.44615
G1 X82.966 Y98.523 E453.82971
G1 X82.3 Y98.712 E453.88128
G1 X81.893 Y98.864 E453.91365
G1 X143.211 Y160.182 E460.37428
G1 X143.007 Y160.73 E460.41785
G1 X142.814 Y161.199 E460.45563
G1 X80.876 Y99.26 E466.98164
G1 X79.892 Y99.667 E467.06098
G1 X79.876 Y99.675 E467.06231
G1 X142.399 Y162.198 E473.6499
G1 X141.954 Y163.166 E473.72928
G0 F7200 X141.954 Y163.167
G1 F1350 X78.908 Y100.122 E480.37193
G1 X77.998 Y100.625 E480.44939
G1 X141.448 Y164.076 E487.13471
G1 X141.321 Y164.305 E487.15422
G1 X140.918 Y164.96 E487.21151
G1 X77.115 Y101.157 E493.93397
G1 X76.545 Y101.505 E493.98373
G1 X76.244 Y101.7 E494.01045
G1 X140.374 Y165.829 E500.76731
G1 X140.1 Y166.249 E500.80467
G1 X139.787 Y166.657 E500.84298
G1 X75.418 Y102.288 E507.62507
G1 X74.62 Y102.904 E507.70018
G1 X139.171 Y167.455 E514.50145
G1 X138.52 Y168.218 E514.57617
G1 X73.855 Y103.554 E521.3894
G1 X73.426 Y103.921 E521.43146
G1 X73.106 Y104.219 E521.46404
G1 X137.855 Y168.968 E528.28617
G1 X137.425 Y169.436 E528.33352
G1 X137.157 Y169.684 E528.36073
G1 X72.387 Y104.914 E535.18507
G1 X71.774 Y105.583 E535.25267
G1 X71.713 Y105.654 E535.25965
G1 X136.417 Y170.358 E542.07704
G1 X135.656 Y171.011 E542.15175
G1 X71.062 Y106.418 E548.95749
G1 X70.795 Y106.732 E548.9882
G1 X70.433 Y107.203 E549.03246
G1 X134.87 Y171.639 E555.82166
G1 X134.238 Y172.128 E555.8812
G1 X134.06 Y172.244 E555.89703
G1 X69.826 Y108.01 E562.6649
G1 X69.456 Y108.58 E562.71553
G1 X69.275 Y108.873 E562.74119
G1 X133.199 Y172.797 E569.47639
G1 X132.323 Y173.335 E569.55298
G1 X68.736 Y109.748 E576.25268
G1 X68.678 Y109.843 E576.26098
G1 X68.227 Y110.653 E576.33005
G1 X131.418 Y173.845 E582.98808
G1 X131.037 Y174.056 E583.02052
G1 X130.472 Y174.313 E583.06677
G1 X67.759 Y111.6 E589.67438
G1 X67.622 Y111.898 E589.69882
G1 X67.335 Y112.59 E589.75463
G1 X129.483 Y174.738 E596.30271
G1 X128.67 Y175.074 E596.36825
G1 X128.477 Y175.146 E596.3836
G1 X66.926 Y113.595 E602.86878
G1 X66.642 Y114.358 E602.92944
G1 X66.56 Y114.643 E602.95153
G1 X127.429 Y175.513 E609.36491
G1 X126.485 Y175.784 E609.43808
G1 X126.324 Y175.822 E609.4504
G1 X66.25 Y115.748 E615.77997
G1 X65.98 Y116.892 E615.86754
G1 X125.183 Y176.095 E622.10533
G1 X124.933 Y176.155 E622.12448
G1 X124.433 Y176.266 E622.16264
G1 X124.008 Y176.334 E622.19471
G1 X65.734 Y118.059 E628.33467
G1 X65.706 Y118.22 E628.34684
G1 X65.573 Y119.313 E628.42887
G1 X122.76 Y176.5 E634.45425
G1 X122.704 Y176.507 E634.45846
G1 X121.451 Y176.605 E634.55209
G1 X65.468 Y120.623 E640.45056
G1 X65.453 Y120.825 E640.46565
G1 X65.405 Y121.974 E640.55133
G1 X120.101 Y176.669 E646.3142
G1 X120.052 Y176.672 E646.31786
G1 X118.689 Y176.672 E646.41941
G1 X65.4 Y123.383 E652.03408
G1 X65.4 Y124.797 E652.13943
G1 X117.275 Y176.672 E657.60512
G1 X115.86 Y176.672 E657.71054
G1 X65.4 Y126.211 E663.0272
G1 X65.4 Y127.625 E663.13254
G1 X114.446 Y176.672 E668.30022
G1 X113.032 Y176.672 E668.40556
G1 X65.4 Y129.039 E673.42425
G1 X65.4 Y130.454 E673.52967
G1 X111.618 Y176.672 E678.39933
G1 X110.204 Y176.672 E678.50468
G1 X65.4 Y131.868 E683.22535
G1 X65.401 Y133.283 E683.33077
G1 X108.79 Y176.672 E687.90235
