;FLAVOR:Marlin
;TIME:7085
;Filament used: 7.45099m
;Layer height: 0.15
;Generated with Cura_SteamEngine 3.3.1
M82 ;absolute extrusion mode
 ;Basic settings: Layer height: 0.15 Walls: 1 Fill: 80
 ;metric values
 M107
 G28
 G29
 G90        ;absolute positioning
 G92 E0; reset extruder distance
 G1 Z5 F300 ;move nozzle up 5mm for safe homing
 G1 X0 Y0 Z0 F5000; move nozzle to home
 M300 S600P200
 M300 S800 P200
 M190 S65 ;Uncomment to add your own bed temperature line
 M109 S210 ;Uncomment to add your own temperature line
 M82        ;set extruder to absolute mode
 M107       ;start with the fan off
 G1 Z15.0 F120 ;move the platform down 15mm
 G92 E0                  ;zero the extruded length
 G1 F200 E3              ;extrude 3mm of feed stock
 G92 E0                  ;zero the extruded length again
 G1 F120
 ;Put printing message on LCD screen
 M117 Printing...

G92 E0
G1 F1500 E-3
;LAYER_COUNT:87
;LAYER:-6
M107
G0 F7200 X74.581 Y90.859 Z0.24
G1 F1500 E0
G1 F1350 X75.855 Y89.88 E0.12825
G1 X76.536 Y89.437 E0.1931
G1 X77.837 Y88.64 E0.31489
G1 X78.963 Y88.018 E0.41758
G1 X79.914 Y87.585 E0.50099
G1 X81.33 Y86.999 E0.62332
G1 X82.29 Y86.641 E0.7051
G1 X83.515 Y86.29 E0.80682
G1 X85.066 Y85.919 E0.93412
G1 X85.564 Y85.809 E0.97483
G1 X86.584 Y85.643 E1.05733
G1 X87.295 Y85.567 E1.1144
G1 X88.819 Y85.447 E1.23643
G1 X89.947 Y85.402 E1.32655
G1 X119.948 Y85.4 E3.72136
G1 X121.181 Y85.446 E3.81985
G1 X122.666 Y85.564 E3.93876
G1 X123.696 Y85.682 E4.02152
G1 X124.382 Y85.799 E4.07707
G1 X125.027 Y85.94 E4.12977
G1 X126.485 Y86.29 E4.24946
G1 X127.71 Y86.641 E4.35118
G1 X128.662 Y86.996 E4.43229
G1 X130.086 Y87.585 E4.55529
G1 X131.037 Y88.018 E4.63871
G1 X132.158 Y88.637 E4.74092
G1 X133.464 Y89.437 E4.86318
G1 X134.236 Y89.945 E4.93695
G1 X135.412 Y90.853 E5.05555
G1 X136.573 Y91.847 E5.17755
G1 X137.4 Y92.611 E5.26742
G1 X138.234 Y93.518 E5.36578
G1 X139.205 Y94.659 E5.48537
G1 X140.105 Y95.833 E5.60346
G1 X140.502 Y96.44 E5.66135
G1 X141.321 Y97.769 E5.78597
G1 X141.982 Y98.963 E5.89491
G1 X142.415 Y99.914 E5.97832
G1 X143.001 Y101.33 E6.10065
G1 X143.369 Y102.323 E6.18518
G1 X143.721 Y103.557 E6.28761
G1 X144.072 Y105.021 E6.40779
G1 X144.216 Y105.697 E6.46296
G1 X144.424 Y107.235 E6.58685
G1 X144.555 Y108.848 E6.71603
G1 X144.595 Y109.898 E6.7999
G1 X144.6 Y139.954 E9.1991
G1 X144.547 Y141.249 E9.30256
G1 X144.429 Y142.735 E9.42156
G1 X144.297 Y143.84 E9.51039
G1 X144.195 Y144.419 E9.55732
G1 X144.08 Y144.934 E9.59944
G1 X143.712 Y146.479 E9.72622
G1 X143.356 Y147.718 E9.82912
G1 X142.98 Y148.721 E9.91463
G1 X142.396 Y150.13 E10.03638
G1 X141.936 Y151.125 E10.12388
G1 X141.327 Y152.221 E10.22397
G1 X140.505 Y153.556 E10.34911
G1 X140.059 Y154.232 E10.41376
G1 X139.147 Y155.412 E10.53281
G1 X138.153 Y156.573 E10.65481
G1 X137.39 Y157.399 E10.74457
G1 X136.494 Y158.224 E10.84179
G1 X135.341 Y159.205 E10.96264
G1 X134.186 Y160.092 E11.07888
G1 X133.56 Y160.502 E11.13862
G1 X132.231 Y161.321 E11.26323
G1 X131.037 Y161.983 E11.37221
G1 X130.13 Y162.396 E11.45176
G1 X128.74 Y162.973 E11.5719
G1 X127.677 Y163.369 E11.66245
G1 X126.443 Y163.721 E11.76488
G1 X124.934 Y164.081 E11.88872
G1 X124.433 Y164.192 E11.92968
G1 X123.416 Y164.357 E12.01192
G1 X122.705 Y164.433 E12.069
G1 X121.181 Y164.553 E12.19103
G1 X120.053 Y164.598 E12.28114
G1 X90.052 Y164.6 E14.67595
G1 X88.819 Y164.554 E14.77444
G1 X87.334 Y164.436 E14.89336
G1 X86.304 Y164.318 E14.97611
G1 X85.618 Y164.201 E15.03166
G1 X84.973 Y164.06 E15.08437
G1 X83.515 Y163.71 E15.20406
G1 X82.29 Y163.359 E15.30578
G1 X81.33 Y163.001 E15.38756
G1 X79.914 Y162.415 E15.50989
G1 X78.962 Y161.982 E15.59337
G1 X77.837 Y161.36 E15.69599
G1 X76.536 Y160.563 E15.81778
G1 X75.762 Y160.054 E15.89172
G1 X74.581 Y159.141 E16.01088
G1 X73.424 Y158.15 E16.13249
G1 X72.61 Y157.399 E16.22089
G1 X71.766 Y156.482 E16.32038
G1 X70.788 Y155.332 E16.44088
G1 X69.896 Y154.169 E16.55788
G1 X69.495 Y153.556 E16.61635
G1 X68.673 Y152.221 E16.7415
G1 X68.018 Y151.037 E16.84951
G1 X67.585 Y150.086 E16.93292
G1 X66.995 Y148.659 E17.05618
G1 X66.624 Y147.656 E17.14155
G1 X66.279 Y146.443 E17.24221
G1 X65.919 Y144.934 E17.36605
G1 X65.806 Y144.423 E17.40782
G1 X65.646 Y143.433 E17.48788
G1 X65.564 Y142.651 E17.55064
G1 X65.443 Y141.101 E17.67475
G1 X65.402 Y140.047 E17.75894
G1 X65.4 Y110.046 E20.15375
G1 X65.444 Y108.891 E20.24602
G1 X65.562 Y107.367 E20.36803
G1 X65.682 Y106.311 E20.45287
G1 X65.803 Y105.59 E20.51123
G1 X65.923 Y105.066 E20.55414
G1 X66.288 Y103.521 E20.68086
G1 X66.644 Y102.28 E20.78392
G1 X67.025 Y101.265 E20.87046
G1 X67.604 Y99.87 E20.99103
G1 X68.065 Y98.873 E21.07871
G1 X68.673 Y97.779 E21.17862
G1 X69.495 Y96.444 E21.30376
G1 X69.895 Y95.833 E21.36206
G1 X70.788 Y94.668 E21.47923
G1 X71.766 Y93.518 E21.59974
G1 X72.6 Y92.611 E21.69809
G1 X73.427 Y91.847 E21.78796
G1 X74.581 Y90.859 E21.90923
G0 F7200 X75.2 Y90.383
G1 F1350 X75.2 Y159.619 E27.43595
G1 F1500 E24.43595
G0 F7200 X76.8 Y160.724
G1 F1500 E27.43595
G1 F1350 X76.8 Y89.275 E33.13932
G1 F1500 E30.13932
G0 F7200 X78.4 Y88.329
G1 F1500 E33.13932
G1 F1350 X78.4 Y161.671 E38.99379
G1 F1500 E35.99379
G0 F7200 X80 Y162.45
G1 F1500 E38.99379
G1 F1350 X80 Y87.549 E44.97271
G1 F1500 E41.97271
G0 F7200 X81.6 Y86.898
G1 F1500 E44.97271
G1 F1350 X81.6 Y163.101 E51.05557
G1 F1500 E48.05557
G0 F7200 X83.2 Y163.619
G1 F1500 E51.05557
G1 F1350 X83.2 Y86.38 E57.22112
G1 F1500 E54.22112
G0 F7200 X84.8 Y85.982
G1 F1500 E57.22112
G1 F1350 X84.8 Y164.018 E63.45029
G1 F1500 E60.45029
G0 F7200 X86.4 Y164.328
G1 F1500 E63.45029
G1 F1350 X86.4 Y85.672 E69.72895
G1 F1500 E66.72895
G0 F7200 X88 Y85.511
G1 F1500 E69.72895
G1 F1350 X88 Y164.488 E76.03324
G1 F1500 E73.03324
G0 F7200 X89.6 Y164.583
G1 F1500 E76.03324
G1 F1350 X89.6 Y85.415 E82.35277
G1 F1500 E79.35277
G0 F7200 X91.2 Y85.401
G1 F1500 E82.35277
G1 F1350 X91.2 Y164.6 E88.67477
G1 F1500 E85.67477
G0 F7200 X92.8 Y164.6
G1 F1500 E88.67477
G1 F1350 X92.8 Y85.401 E94.99678
G1 F1500 E91.99678
G0 F7200 X94.4 Y85.401
G1 F1500 E94.99678
G1 F1350 X94.4 Y164.6 E101.31879
G1 F1500 E98.31879
G0 F7200 X96 Y164.6
G1 F1500 E101.31879
G1 F1350 X96 Y85.401 E107.64079
G1 F1500 E104.64079
G0 F7200 X97.6 Y85.401
G1 F1500 E107.64079
G1 F1350 X97.6 Y164.6 E113.9628
G1 F1500 E110.9628
G0 F7200 X99.2 Y164.6
G1 F1500 E113.9628
G1 F1350 X99.2 Y85.401 E120.28481
G1 F1500 E117.28481
G0 F7200 X100.8 Y85.401
G1 F1500 E120.28481
G1 F1350 X100.8 Y164.6 E126.60681
G1 F1500 E123.60681
G0 F7200 X102.4 Y164.6
G1 F1500 E126.60681
G1 F1350 X102.4 Y85.401 E132.92882
G1 F1500 E129.92882
G0 F7200 X104 Y85.401
G1 F1500 E132.92882
G1 F1350 X104 Y164.6 E139.25083
G1 F1500 E136.25083
G0 F7200 X105.6 Y164.599
G1 F1500 E139.25083
G1 F1350 X105.6 Y85.4 E145.57283
G1 F1500 E142.57283
G0 F7200 X107.2 Y85.4
G1 F1500 E145.57283
G1 F1350 X107.2 Y164.599 E151.89484
G1 F1500 E148.89484
G0 F7200 X108.8 Y164.599
G1 F1500 E151.89484
G1 F1350 X108.8 Y85.4 E158.21685
G1 F1500 E155.21685
G0 F7200 X110.4 Y85.4
G1 F1500 E158.21685
G1 F1350 X110.4 Y164.599 E164.53885
G1 F1500 E161.53885
G0 F7200 X112 Y164.599
G1 F1500 E164.53885
G1 F1350 X112 Y85.4 E170.86086
G1 F1500 E167.86086
G0 F7200 X113.6 Y85.4
G1 F1500 E170.86086
G1 F1350 X113.6 Y164.599 E177.18287
G1 F1500 E174.18287
G0 F7200 X115.2 Y164.599
G1 F1500 E177.18287
G1 F1350 X115.2 Y85.4 E183.50487
G1 F1500 E180.50487
G0 F7200 X116.8 Y85.4
G1 F1500 E183.50487
G1 F1350 X116.8 Y164.599 E189.82688
G1 F1500 E186.82688
G0 F7200 X118.4 Y164.599
G1 F1500 E189.82688
G1 F1350 X118.4 Y85.4 E196.14889
G1 F1500 E193.14889
G0 F7200 X120 Y85.402
G1 F1500 E196.14889
G1 F1350 X120 Y164.599 E202.47073
G1 F1500 E199.47073
G0 F7200 X121.6 Y164.521
G1 F1500 E202.47073
G1 F1350 X121.6 Y85.48 E208.78013
G1 F1500 E205.78013
G0 F7200 X123.2 Y85.626
G1 F1500 E208.78013
G1 F1350 X123.2 Y164.381 E215.06669
G1 F1500 E212.06669
G0 F7200 X124.8 Y164.111
G1 F1500 E215.06669
G1 F1350 X124.8 Y85.891 E221.31055
G1 F1500 E218.31055
G0 F7200 X126.4 Y86.27
G1 F1500 E221.31055
G1 F1350 X126.4 Y163.732 E227.4939
G1 F1500 E224.4939
G0 F7200 X128 Y163.249
G1 F1500 E227.4939
G1 F1350 X128 Y86.75 E233.60038
G1 F1500 E230.60038
G0 F7200 X129.6 Y87.384
G1 F1500 E233.60038
G1 F1350 X129.6 Y162.617 E239.60581
G1 F1500 E236.60581
G0 F7200 X131.2 Y161.893
G1 F1500 E239.60581
G1 F1350 X131.2 Y88.109 E245.49557
G1 F1500 E242.49557
G0 F7200 X132.8 Y89.031
G1 F1500 E245.49557
G1 F1350 X132.8 Y160.971 E251.23813
G1 F1500 E248.23813
G0 F7200 X134.4 Y159.928
G1 F1500 E251.23813
G1 F1350 X134.4 Y90.072 E256.81434
G1 F1500 E253.81434
G0 F7200 X136 Y91.357
G1 F1500 E256.81434
G1 F1350 X136 Y158.645 E262.18556
G1 F1500 E259.18556
G0 F7200 X137.6 Y157.172
G1 F1500 E262.18556
G1 F1350 X137.6 Y92.829 E267.32169
G1 F1500 E264.32169
G0 F7200 X139.2 Y94.654
G1 F1500 E267.32169
G1 F1350 X139.2 Y155.344 E272.16623
G1 F1500 E269.16623
G0 F7200 X140.8 Y153.077
G1 F1500 E272.16623
G1 F1350 X140.8 Y96.924 E276.64861
G1 F1500 E273.64861
G0 F7200 X142.4 Y99.882
G1 F1500 E276.64861
G1 F1350 X142.4 Y150.121 E280.6589
G1 F1500 E277.6589
G0 F7200 X144 Y145.27
G1 F1500 E280.6589
G1 F1350 X144 Y104.721 E283.8957
G1 F1500 E280.8957
G0 F7200 X73.6 Y91.698
G1 F1500 E283.8957
G1 F1350 X73.6 Y158.3 E289.21216
G1 F1500 E286.21216
G0 F7200 X72 Y156.736
G1 F1500 E289.21216
G1 F1350 X72 Y93.263 E294.27884
G1 F1500 E291.27884
G0 F7200 X70.4 Y95.174
G1 F1500 E294.27884
G1 F1350 X70.4 Y154.826 E299.04053
G1 F1500 E296.04053
G0 F7200 X68.8 Y152.427
G1 F1500 E299.04053
G1 F1350 X68.8 Y97.572 E303.41929
G1 F1500 E300.41929
G0 F7200 X67.2 Y100.843
G1 F1500 E303.41929
G1 F1350 X67.2 Y149.154 E307.27568
G1 F1500 E304.27568
G0 F7200 X65.6 Y142.994
M104 S210
G1 F1500 E307.27568
G1 F1350 X65.6 Y107.032 E310.14632
G1 F1500 E307.14632
G0 F7200 X65.645 Y143.427
;TIME_ELAPSED:193.050867
;LAYER:-5
M140 S65
G0 X65.645 Y143.427 Z0.464
;TYPE:SUPPORT
G1 F1500 E310.14632
G1 F1350 X86.565 Y164.347 E312.35051
G1 X87.334 Y164.435 E312.40818
G1 X88.13 Y164.498 E312.46767
G1 X65.502 Y141.87 E314.85182
G1 X65.442 Y141.1 E314.90936
G1 X65.414 Y140.367 E314.96401
G1 X89.63 Y164.583 E317.51547
G1 X90.052 Y164.599 E317.54693
G1 X91.059 Y164.598 E317.62196
G1 X65.401 Y138.94 E320.32536
G1 X65.401 Y137.526 E320.4307
G1 X92.474 Y164.598 E323.28314
G1 X93.888 Y164.598 E323.38848
G1 X65.401 Y136.112 E326.3899
G1 X65.401 Y134.698 E326.49524
G1 X95.302 Y164.598 E329.64564
G1 X96.716 Y164.598 E329.75099
G1 X65.401 Y133.283 E333.05042
G1 X65.401 Y131.869 E333.15577
G1 X98.13 Y164.598 E336.60419
G1 X99.545 Y164.598 E336.70961
G1 X65.401 Y130.455 E340.30706
G1 X65.401 Y129.04 E340.41248
G1 X100.958 Y164.598 E344.15892
G1 X102.372 Y164.598 E344.26426
G1 X65.401 Y127.626 E348.15968
G1 X65.401 Y126.212 E348.26503
G1 X103.787 Y164.598 E352.30948
G1 X105.201 Y164.598 E352.41483
G1 X65.401 Y124.797 E356.60832
G1 X65.401 Y123.383 E356.71367
G1 X106.615 Y164.598 E361.05614
G1 X108.029 Y164.598 E361.16149
G1 X65.401 Y121.969 E365.65294
G1 X65.401 Y120.555 E365.75829
G1 X109.443 Y164.598 E370.39873
G1 X110.857 Y164.597 E370.50407
G1 X65.4 Y119.14 E375.29355
G1 X65.4 Y117.726 E375.39889
G1 X112.271 Y164.597 E380.33735
G1 X113.685 Y164.597 E380.4427
G1 X65.4 Y116.311 E385.53019
G1 X65.4 Y114.897 E385.63554
G1 X115.1 Y164.597 E390.87206
G1 X116.514 Y164.597 E390.97741
G1 X65.4 Y113.483 E396.36292
G1 X65.4 Y112.069 E396.46827
G1 X117.928 Y164.597 E402.00276
G1 X119.342 Y164.597 E402.10811
G1 X65.4 Y110.655 E407.79158
G1 X65.4 Y110.045 E407.83703
G1 X65.429 Y109.269 E407.89489
G1 X120.729 Y164.569 E413.72144
G1 X121.181 Y164.552 E413.75514
G1 X122.056 Y164.482 E413.82054
G1 X65.516 Y107.943 E419.7777
G1 X65.562 Y107.366 E419.82082
G1 X65.642 Y106.654 E419.8742
G1 X123.35 Y164.362 E425.95447
G1 X123.416 Y164.356 E425.95941
G1 X124.433 Y164.19 E426.03618
G1 X124.563 Y164.161 E426.04611
G1 X65.838 Y105.435 E432.23359
G1 X65.922 Y105.065 E432.26185
G1 X66.105 Y104.289 E432.32125
G1 X125.71 Y163.894 E438.6014
G1 X126.442 Y163.719 E438.65747
G1 X126.837 Y163.606 E438.68808
G1 X66.39 Y103.16 E445.05689
G1 X66.644 Y102.279 E445.1252
G1 X66.72 Y102.075 E445.14142
G1 X127.921 Y163.276 E451.58972
G1 X128.74 Y162.972 E451.65481
G1 X128.945 Y162.886 E451.67137
G1 X67.112 Y101.053 E458.18627
G1 X67.527 Y100.054 E458.26686
G1 X129.945 Y162.471 E464.84334
G1 X130.13 Y162.395 E464.85824
G1 X130.921 Y162.034 E464.92302
G1 X67.967 Y99.08 E471.55602
G1 X68.064 Y98.871 E471.57319
G1 X68.46 Y98.159 E471.63389
G1 X131.838 Y161.537 E478.31157
G1 X132.231 Y161.32 E478.34501
G1 X132.728 Y161.013 E478.38854
G1 X68.985 Y97.269 E485.10473
G1 X69.495 Y96.443 E485.17705
G1 X69.525 Y96.395 E485.18127
G1 X133.602 Y160.472 E491.9326
G1 X134.185 Y160.091 E491.98448
G1 X134.439 Y159.895 E492.00839
G1 X70.103 Y95.559 E498.787
G1 X70.717 Y94.759 E498.86214
G1 X135.239 Y159.281 E505.66035
G1 X135.34 Y159.204 E505.66981
G1 X136.008 Y158.635 E505.73519
G1 X71.363 Y93.99 E512.54636
G1 X71.766 Y93.516 E512.59271
G1 X72.023 Y93.236 E512.62103
G1 X136.762 Y157.975 E519.44211
G1 X137.39 Y157.398 E519.50565
G1 X137.491 Y157.29 E519.51666
G1 X72.709 Y92.508 E526.34227
G1 X73.427 Y91.846 E526.41503
G1 X73.445 Y91.83 E526.41683
G1 X138.169 Y156.554 E533.23632
G1 X138.821 Y155.791 E533.3111
G1 X74.208 Y91.178 E540.1189
G1 X74.58 Y90.858 E540.15546
G1 X74.988 Y90.545 E540.19377
G1 X139.456 Y155.012 E546.98624
G1 X140.059 Y154.231 E547.05975
G1 X140.071 Y154.213 E547.06136
G1 X75.789 Y89.931 E553.83429
G1 X75.854 Y89.879 E553.84049
G1 X76.535 Y89.436 E553.90102
G1 X76.643 Y89.371 E553.91041
G1 X140.627 Y153.355 E560.65194
G1 X141.166 Y152.48 E560.7285
G1 X77.52 Y88.833 E567.43447
G1 X77.837 Y88.639 E567.46216
G1 X78.418 Y88.318 E567.51162
G1 X141.682 Y151.581 E574.17723
G1 X141.936 Y151.124 E574.21618
G1 X142.158 Y150.644 E574.25559
G1 X79.354 Y87.839 E580.87284
G1 X79.913 Y87.584 E580.91862
G1 X80.337 Y87.409 E580.95279
G1 X142.59 Y149.661 E587.51188
G1 X142.979 Y148.72 E587.58774
G1 X143.003 Y148.66 E587.59256
G1 X81.338 Y86.995 E594.08975
G1 X82.29 Y86.64 E594.16545
G1 X82.374 Y86.617 E594.17194
G1 X143.382 Y147.625 E600.59991
G1 X143.698 Y146.527 E600.68503
G1 X83.473 Y86.301 E607.03055
G1 X83.514 Y86.289 E607.03374
G1 X84.613 Y86.027 E607.11791
G1 X143.972 Y145.386 E613.37214
G1 X144.08 Y144.932 E613.4069
G1 X144.194 Y144.418 E613.44613
G1 X144.228 Y144.228 E613.46051
G1 X85.774 Y85.774 E619.61938
G1 X86.583 Y85.642 E619.68045
G1 X87.011 Y85.597 E619.71252
G1 X144.398 Y142.984 E625.75897
G1 X144.427 Y142.735 E625.77764
G1 X144.512 Y141.683 E625.85628
G1 X88.315 Y85.487 E631.77729
G1 X88.818 Y85.446 E631.81489
G1 X89.656 Y85.414 E631.87737
G1 X144.584 Y140.341 E637.66468
G1 X144.599 Y139.954 E637.69354
G1 X144.599 Y138.942 E637.76893
G1 X91.059 Y85.402 E643.41005
G1 X92.473 Y85.402 E643.5154
G1 X144.599 Y137.528 E649.00754
G1 X144.599 Y136.113 E649.11296
G1 X93.887 Y85.402 E654.45606
G1 X95.301 Y85.402 E654.56141
G1 X144.599 Y134.699 E659.75553
G1 X144.599 Y133.285 E659.86087
G1 X96.715 Y85.402 E664.90601
G1 X98.129 Y85.401 E665.01136
G1 X144.598 Y131.87 E669.90746
G1 X144.598 Y130.456 E670.01281
G1 X99.543 Y85.401 E674.75992
G1 X100.957 Y85.401 E674.86527
G1 X144.598 Y129.042 E679.46341
G1 X144.597 Y127.627 E679.56883
G1 X102.372 Y85.401 E684.01782
G1 X103.786 Y85.401 E684.12317
G1 X144.597 Y126.212 E688.42313
G1 X144.596 Y124.797 E688.52855
G1 X105.199 Y85.4 E692.67952
G1 X106.614 Y85.4 E692.78494
G1 X144.596 Y123.383 E696.78688
G1 X144.596 Y121.969 E696.89223
G1 X108.028 Y85.4 E700.74519
G1 X109.442 Y85.4 E700.85053
G1 X144.596 Y120.554 E704.55446
G1 X144.596 Y119.14 E704.6598
G1 X110.856 Y85.4 E708.21474
G1 X112.27 Y85.4 E708.32009
G1 X144.596 Y117.726 E711.72604
G1 X144.595 Y116.311 E711.83147
G1 X113.684 Y85.4 E715.08833
G1 X115.098 Y85.4 E715.19368
G1 X144.595 Y114.897 E718.30156
G1 X144.594 Y113.482 E718.40699
G1 X116.512 Y85.4 E721.36578
G1 X117.927 Y85.4 E721.4712
G1 X144.594 Y112.067 E724.28091
G1 X144.594 Y110.653 E724.38626
G1 X119.341 Y85.4 E727.04698
G1 X119.947 Y85.399 E727.09213
G1 X120.786 Y85.431 E727.15469
G1 X144.567 Y109.212 E729.66032
G1 X144.553 Y108.847 E729.68753
G1 X144.46 Y107.69 E729.77401
G1 X122.304 Y85.535 E732.10837
